;FLAVOR:UltiGCode
;TIME:3169
;MATERIAL:7583
;MATERIAL2:0
;NOZZLE_DIAMETER:0.4
;Generated with Cura_SteamEngine master

;LAYER_COUNT:35
;LAYER:0
M107
G0 F3600 X52.08 Y96.461 Z0.299
;TYPE:SKIRT
G1 F1800 X54.869 Y95.04 E0.37436
G1 X55.59 Y94.718 E0.4688
G1 X56.34 Y94.47 E0.56328
G1 X57.189 Y94.286 E0.66718
G1 X60.28 Y93.796 E1.04148
G1 X61.065 Y93.712 E1.1359
G1 X61.501 Y93.7 E1.18807
G1 X171.5 Y93.7 E14.34395
G1 X172.289 Y93.74 E14.43843
G1 X173.069 Y93.859 E14.5328
G1 X173.834 Y94.057 E14.62731
G1 X174.574 Y94.331 E14.72169
G1 X175.283 Y94.679 E14.81615
G1 X175.954 Y95.097 E14.91069
G1 X176.578 Y95.58 E15.00507
G1 X177.151 Y96.123 E15.09948
G1 X177.666 Y96.722 E15.19396
G1 X178.117 Y97.37 E15.28839
G1 X178.501 Y98.061 E15.38293
G1 X178.813 Y98.786 E15.47733
G1 X179.05 Y99.539 E15.57175
G1 X179.209 Y100.313 E15.66625
G1 X179.29 Y101.098 E15.76063
G1 X179.3 Y101.5 E15.80873
G1 X179.3 Y121.5 E18.20073
G1 X179.26 Y122.289 E18.29521
G1 X179.141 Y123.069 E18.38958
G1 X178.943 Y123.834 E18.48409
G1 X178.669 Y124.574 E18.57847
G1 X178.321 Y125.283 E18.67293
G1 X177.903 Y125.954 E18.76748
G1 X177.42 Y126.578 E18.86185
G1 X176.877 Y127.151 E18.95627
G1 X176.278 Y127.666 E19.05074
G1 X175.63 Y128.117 E19.14517
G1 X174.939 Y128.501 E19.23971
G1 X174.214 Y128.813 E19.33411
G1 X173.461 Y129.05 E19.42853
G1 X172.687 Y129.209 E19.52303
G1 X171.902 Y129.29 E19.61742
G1 X171.5 Y129.3 E19.66551
G1 X61.501 Y129.3 E32.82139
G1 X60.712 Y129.26 E32.91588
G1 X60.28 Y129.204 E32.96797
G1 X57.189 Y128.714 E33.34227
G1 X56.416 Y128.551 E33.43676
G1 X55.664 Y128.311 E33.53117
G1 X54.869 Y127.96 E33.6351
G1 X52.08 Y126.539 E34.00947
G1 X51.395 Y126.145 E34.10398
G1 X50.754 Y125.684 E34.19841
G1 X50.106 Y125.104 E34.30242
G1 X47.896 Y122.894 E34.67622
G1 X47.366 Y122.308 E34.77072
G1 X46.899 Y121.672 E34.86509
G1 X46.461 Y120.92 E34.96917
G1 X45.04 Y118.131 E35.34354
G1 X44.718 Y117.41 E35.43798
G1 X44.47 Y116.66 E35.53245
G1 X44.286 Y115.812 E35.63623
G1 X43.796 Y112.722 E36.01042
G1 X43.712 Y111.936 E36.10496
G1 X43.708 Y111.147 E36.19932
G1 X43.796 Y110.278 E36.30379
G1 X44.286 Y107.188 E36.67797
G1 X44.449 Y106.416 E36.77234
G1 X44.69 Y105.663 E36.86689
G1 X45.04 Y104.869 E36.97067
G1 X46.461 Y102.08 E37.34504
G1 X46.855 Y101.395 E37.43955
G1 X47.316 Y100.754 E37.53398
G1 X47.896 Y100.106 E37.63799
G1 X50.106 Y97.896 E38.01179
G1 X50.692 Y97.366 E38.10629
G1 X51.328 Y96.899 E38.20066
G1 X52.08 Y96.461 E38.30474
G0 F3600 X52.262 Y96.817
G1 F1800 X55.051 Y95.396 E38.67911
G1 X55.753 Y95.083 E38.77103
G1 X56.484 Y94.845 E38.86298
G1 X57.251 Y94.681 E38.95678
G1 X60.342 Y94.191 E39.33108
G1 X61.107 Y94.11 E39.42309
G1 X61.501 Y94.1 E39.47023
G1 X171.5 Y94.1 E52.62611
G1 X172.268 Y94.14 E52.71808
G1 X173.028 Y94.259 E52.81009
G1 X173.771 Y94.457 E52.90205
G1 X174.49 Y94.731 E52.99408
G1 X175.176 Y95.078 E53.08602
G1 X175.823 Y95.494 E53.17802
G1 X176.423 Y95.975 E53.26999
G1 X176.97 Y96.516 E53.362
G1 X177.458 Y97.111 E53.45404
G1 X177.881 Y97.753 E53.54599
G1 X178.236 Y98.436 E53.63805
G1 X178.517 Y99.151 E53.72993
G1 X178.723 Y99.893 E53.82203
G1 X178.851 Y100.651 E53.91397
G1 X178.9 Y101.5 E54.01568
G1 X178.9 Y121.5 E56.40768
G1 X178.86 Y122.268 E56.49966
G1 X178.741 Y123.028 E56.59166
G1 X178.543 Y123.771 E56.68363
G1 X178.269 Y124.49 E56.77565
G1 X177.922 Y125.176 E56.8676
G1 X177.506 Y125.823 E56.95959
G1 X177.025 Y126.423 E57.05157
G1 X176.484 Y126.97 E57.14358
G1 X175.889 Y127.458 E57.23561
G1 X175.247 Y127.881 E57.32757
G1 X174.564 Y128.236 E57.41963
G1 X173.849 Y128.517 E57.51151
G1 X173.107 Y128.723 E57.60361
G1 X172.349 Y128.851 E57.69555
G1 X171.5 Y128.9 E57.79726
G1 X61.501 Y128.9 E70.95314
G1 X60.733 Y128.86 E71.04512
G1 X60.342 Y128.809 E71.09228
G1 X57.251 Y128.319 E71.46658
G1 X56.499 Y128.159 E71.55853
G1 X55.767 Y127.922 E71.65055
G1 X55.051 Y127.604 E71.74425
G1 X52.262 Y126.183 E72.11861
G1 X51.595 Y125.798 E72.21072
G1 X50.973 Y125.347 E72.30261
G1 X50.388 Y124.822 E72.39662
G1 X48.178 Y122.612 E72.77042
G1 X47.664 Y122.04 E72.86239
G1 X47.211 Y121.418 E72.95442
G1 X46.817 Y120.738 E73.04842
G1 X45.396 Y117.949 E73.42278
G1 X45.083 Y117.247 E73.51471
G1 X44.845 Y116.516 E73.60665
G1 X44.681 Y115.749 E73.70046
G1 X44.191 Y112.659 E74.07464
G1 X44.111 Y111.894 E74.16663
G1 X44.11 Y111.125 E74.25861
G1 X44.191 Y110.341 E74.35287
G1 X44.681 Y107.251 E74.72705
G1 X44.841 Y106.499 E74.81901
G1 X45.078 Y105.767 E74.91103
G1 X45.396 Y105.051 E75.00473
G1 X46.817 Y102.262 E75.37909
G1 X47.202 Y101.595 E75.4712
G1 X47.653 Y100.973 E75.56309
G1 X48.178 Y100.388 E75.6571
G1 X50.388 Y98.178 E76.0309
G1 X50.96 Y97.664 E76.12287
G1 X51.582 Y97.211 E76.2149
G1 X52.262 Y96.817 E76.30889
G0 F3600 X52.443 Y97.174
G1 F1800 X55.232 Y95.753 E76.68326
G1 X55.916 Y95.449 E76.77278
G1 X56.628 Y95.221 E76.8622
G1 X57.314 Y95.076 E76.94605
G1 X60.405 Y94.586 E77.32035
G1 X61.501 Y94.5 E77.45184
G1 X171.5 Y94.5 E90.60772
G1 X172.247 Y94.54 E90.69719
G1 X172.985 Y94.659 E90.78659
G1 X173.707 Y94.857 E90.87613
G1 X174.403 Y95.13 E90.96555
G1 X175.066 Y95.477 E91.05505
G1 X175.689 Y95.892 E91.14458
G1 X176.263 Y96.371 E91.23399
G1 X176.784 Y96.908 E91.32348
G1 X177.243 Y97.498 E91.41288
G1 X177.638 Y98.134 E91.50242
G1 X177.962 Y98.808 E91.59186
G1 X178.212 Y99.513 E91.68132
G1 X178.386 Y100.241 E91.77084
G1 X178.481 Y100.983 E91.86031
G1 X178.5 Y101.5 E91.92219
G1 X178.5 Y121.5 E94.31419
G1 X178.46 Y122.247 E94.40366
G1 X178.341 Y122.985 E94.49306
G1 X178.143 Y123.707 E94.5826
G1 X177.87 Y124.403 E94.67202
G1 X177.523 Y125.066 E94.76152
G1 X177.108 Y125.689 E94.85104
G1 X176.629 Y126.263 E94.94046
G1 X176.092 Y126.784 E95.02994
G1 X175.502 Y127.243 E95.11935
G1 X174.866 Y127.638 E95.20889
G1 X174.192 Y127.962 E95.29833
G1 X173.487 Y128.212 E95.38779
G1 X172.759 Y128.386 E95.47731
G1 X172.017 Y128.481 E95.56678
G1 X171.5 Y128.5 E95.62866
G1 X61.501 Y128.5 E108.78454
G1 X60.405 Y128.414 E108.91602
G1 X57.314 Y127.924 E109.29032
G1 X56.582 Y127.767 E109.37986
G1 X55.872 Y127.534 E109.46923
G1 X55.232 Y127.247 E109.55312
G1 X52.443 Y125.826 E109.92748
G1 X51.796 Y125.451 E110.01692
G1 X51.192 Y125.01 E110.10637
G1 X50.671 Y124.539 E110.19037
G1 X48.461 Y122.329 E110.56417
G1 X47.961 Y121.772 E110.65369
G1 X47.524 Y121.166 E110.74304
G1 X47.174 Y120.557 E110.82705
G1 X45.753 Y117.768 E111.20142
G1 X45.449 Y117.084 E111.29094
G1 X45.221 Y116.372 E111.38035
G1 X45.076 Y115.686 E111.46421
G1 X44.586 Y112.596 E111.83839
G1 X44.509 Y111.852 E111.92785
G1 X44.511 Y111.104 E112.01731
G1 X44.586 Y110.404 E112.10151
G1 X45.076 Y107.314 E112.47569
G1 X45.233 Y106.582 E112.56523
G1 X45.466 Y105.872 E112.6546
G1 X45.753 Y105.232 E112.73849
G1 X47.174 Y102.443 E113.11285
G1 X47.549 Y101.796 E113.20229
G1 X47.99 Y101.192 E113.29174
G1 X48.461 Y100.671 E113.37574
G1 X50.671 Y98.461 E113.74954
G1 X51.228 Y97.961 E113.83906
G1 X51.834 Y97.524 E113.92841
G1 X52.443 Y97.174 E114.01242
G0 F3600 X52.625 Y97.53
G1 F1800 X55.414 Y96.109 E114.38679
G1 X56.078 Y95.816 E114.47359
G1 X56.771 Y95.597 E114.56051
G1 X57.377 Y95.471 E114.63454
G1 X60.468 Y94.981 E115.00884
G1 X61.501 Y94.9 E115.13277
G1 X171.5 Y94.9 E128.28865
G1 X172.225 Y94.94 E128.37549
G1 X172.942 Y95.059 E128.46241
G1 X173.641 Y95.257 E128.5493
G1 X174.314 Y95.53 E128.63617
G1 X174.953 Y95.875 E128.72302
G1 X175.55 Y96.289 E128.80991
G1 X176.098 Y96.765 E128.89672
G1 X176.591 Y97.299 E128.98364
G1 X177.021 Y97.884 E129.07048
G1 X177.385 Y98.513 E129.15739
G1 X177.678 Y99.178 E129.24431
G1 X177.896 Y99.871 E129.33119
G1 X178.036 Y100.583 E129.41798
G1 X178.1 Y101.5 E129.52792
G1 X178.1 Y121.5 E131.91992
G1 X178.06 Y122.225 E132.00676
G1 X177.941 Y122.942 E132.09369
G1 X177.743 Y123.641 E132.18058
G1 X177.47 Y124.314 E132.26744
G1 X177.125 Y124.953 E132.35429
G1 X176.711 Y125.55 E132.44118
G1 X176.235 Y126.098 E132.52799
G1 X175.701 Y126.591 E132.61491
G1 X175.116 Y127.021 E132.70175
G1 X174.487 Y127.385 E132.78866
G1 X173.822 Y127.678 E132.87558
G1 X173.129 Y127.896 E132.96246
G1 X172.417 Y128.036 E133.04925
G1 X171.5 Y128.1 E133.15919
G1 X61.501 Y128.1 E146.31507
G1 X60.468 Y128.019 E146.439
G1 X57.377 Y127.529 E146.8133
G1 X56.667 Y127.376 E146.90016
G1 X55.978 Y127.145 E146.98707
G1 X55.414 Y126.891 E147.06105
G1 X52.625 Y125.47 E147.43542
G1 X51.997 Y125.105 E147.52229
G1 X51.413 Y124.673 E147.60917
G1 X50.954 Y124.256 E147.68334
G1 X48.744 Y122.046 E148.05714
G1 X48.26 Y121.505 E148.14396
G1 X47.837 Y120.914 E148.23088
G1 X47.53 Y120.375 E148.30507
G1 X46.109 Y117.586 E148.67943
G1 X45.816 Y116.922 E148.76623
G1 X45.597 Y116.229 E148.85316
G1 X45.471 Y115.624 E148.92707
G1 X44.981 Y112.534 E149.30125
G1 X44.907 Y111.811 E149.38817
G1 X44.913 Y111.085 E149.475
G1 X44.981 Y110.466 E149.54948
G1 X45.471 Y107.376 E149.92366
G1 X45.625 Y106.666 E150.01055
G1 X45.855 Y105.977 E150.09743
G1 X46.109 Y105.414 E150.1713
G1 X47.53 Y102.625 E150.54566
G1 X47.895 Y101.997 E150.63254
G1 X48.327 Y101.413 E150.71942
G1 X48.744 Y100.954 E150.79358
G1 X50.954 Y98.744 E151.16738
G1 X51.495 Y98.26 E151.2542
G1 X52.086 Y97.837 E151.34112
G1 X52.625 Y97.53 E151.41531
G0 F3600 X52.806 Y97.887
G1 F1800 X55.595 Y96.466 E151.78968
G1 X56.24 Y96.182 E151.87397
G1 X56.912 Y95.974 E151.9581
G1 X57.439 Y95.866 E152.02244
G1 X60.53 Y95.376 E152.39674
G1 X61.501 Y95.3 E152.51322
G1 X171.5 Y95.3 E165.6691
G1 X172.203 Y95.34 E165.75332
G1 X172.897 Y95.459 E165.83753
G1 X173.572 Y95.657 E165.92166
G1 X174.221 Y95.929 E166.00583
G1 X174.835 Y96.274 E166.09006
G1 X175.406 Y96.685 E166.1742
G1 X175.927 Y97.159 E166.25844
G1 X176.391 Y97.689 E166.34269
G1 X176.791 Y98.268 E166.42686
G1 X177.123 Y98.889 E166.51108
G1 X177.383 Y99.543 E166.59525
G1 X177.567 Y100.223 E166.6795
G1 X177.673 Y100.919 E166.7637
G1 X177.7 Y101.5 E166.83327
G1 X177.7 Y121.5 E169.22527
G1 X177.66 Y122.203 E169.30948
G1 X177.541 Y122.897 E169.3937
G1 X177.343 Y123.572 E169.47783
G1 X177.071 Y124.221 E169.56199
G1 X176.726 Y124.835 E169.64622
G1 X176.315 Y125.406 E169.73036
G1 X175.841 Y125.927 E169.8146
G1 X175.311 Y126.391 E169.89885
G1 X174.732 Y126.791 E169.98302
G1 X174.111 Y127.123 E170.06724
G1 X173.457 Y127.383 E170.15141
G1 X172.777 Y127.567 E170.23566
G1 X172.081 Y127.673 E170.31987
G1 X171.5 Y127.7 E170.38943
G1 X61.501 Y127.7 E183.54531
G1 X60.53 Y127.624 E183.6618
G1 X57.439 Y127.134 E184.0361
G1 X56.751 Y126.984 E184.12031
G1 X56.085 Y126.757 E184.20447
G1 X55.595 Y126.534 E184.26885
G1 X52.806 Y125.113 E184.64322
G1 X52.198 Y124.759 E184.72736
G1 X51.634 Y124.337 E184.81161
G1 X51.237 Y123.973 E184.87603
G1 X49.027 Y121.763 E185.24983
G1 X48.558 Y121.238 E185.33402
G1 X48.152 Y120.663 E185.41821
G1 X47.887 Y120.194 E185.48264
G1 X46.466 Y117.405 E185.857
G1 X46.182 Y116.76 E185.94129
G1 X45.974 Y116.088 E186.02542
G1 X45.867 Y115.561 E186.08974
G1 X45.377 Y112.471 E186.46392
G1 X45.306 Y111.771 E186.54807
G1 X45.315 Y111.067 E186.63227
G1 X45.377 Y110.529 E186.69704
G1 X45.867 Y107.439 E187.07123
G1 X46.016 Y106.751 E187.15542
G1 X46.243 Y106.085 E187.23957
G1 X46.466 Y105.595 E187.30396
G1 X47.887 Y102.806 E187.67832
G1 X48.241 Y102.198 E187.76247
G1 X48.663 Y101.634 E187.84671
G1 X49.027 Y101.237 E187.91113
G1 X51.237 Y99.027 E188.28493
G1 X51.762 Y98.558 E188.36913
G1 X52.337 Y98.152 E188.45331
G1 X52.806 Y97.887 E188.51774
G0 F3600 X52.988 Y98.243
G1 F1800 X55.777 Y96.822 E188.8921
G1 X56.401 Y96.549 E188.97356
G1 X57.052 Y96.351 E189.05495
G1 X57.502 Y96.262 E189.10981
G1 X60.593 Y95.772 E189.48411
G1 X61.501 Y95.7 E189.59305
G1 X171.5 Y95.7 E202.74893
G1 X172.18 Y95.74 E202.83039
G1 X172.85 Y95.859 E202.91178
G1 X173.502 Y96.056 E202.99324
G1 X174.126 Y96.328 E203.07465
G1 X174.714 Y96.672 E203.15613
G1 X175.258 Y97.082 E203.2376
G1 X175.749 Y97.553 E203.31898
G1 X176.183 Y98.078 E203.40044
G1 X176.552 Y98.65 E203.48185
G1 X176.851 Y99.262 E203.56332
G1 X177.076 Y99.904 E203.64468
G1 X177.225 Y100.569 E203.72619
G1 X177.3 Y101.5 E203.83789
G1 X177.3 Y121.5 E206.22989
G1 X177.26 Y122.18 E206.31136
G1 X177.141 Y122.85 E206.39275
G1 X176.944 Y123.502 E206.47421
G1 X176.672 Y124.126 E206.55562
G1 X176.328 Y124.714 E206.6371
G1 X175.918 Y125.258 E206.71857
G1 X175.447 Y125.749 E206.79994
G1 X174.922 Y126.183 E206.88141
G1 X174.35 Y126.552 E206.96282
G1 X173.738 Y126.851 E207.04428
G1 X173.096 Y127.076 E207.12565
G1 X172.431 Y127.225 E207.20715
G1 X171.5 Y127.3 E207.31886
G1 X61.501 Y127.3 E220.47474
G1 X60.593 Y127.228 E220.58368
G1 X57.502 Y126.738 E220.95798
G1 X56.837 Y126.593 E221.03938
G1 X56.193 Y126.37 E221.12089
G1 X55.777 Y126.178 E221.17569
G1 X52.988 Y124.757 E221.55005
G1 X52.4 Y124.413 E221.63153
G1 X51.857 Y124.002 E221.71298
G1 X51.52 Y123.69 E221.7679
G1 X49.31 Y121.48 E222.1417
G1 X48.857 Y120.971 E222.2232
G1 X48.468 Y120.413 E222.30455
G1 X48.243 Y120.012 E222.35954
G1 X46.822 Y117.223 E222.73391
G1 X46.549 Y116.599 E222.81537
G1 X46.351 Y115.948 E222.89675
G1 X46.262 Y115.498 E222.95161
G1 X45.772 Y112.408 E223.32579
G1 X45.705 Y111.731 E223.40716
G1 X45.717 Y111.05 E223.48862
G1 X45.772 Y110.592 E223.54379
G1 X46.262 Y107.502 E223.91797
G1 X46.408 Y106.837 E223.9994
G1 X46.63 Y106.193 E224.08087
G1 X46.822 Y105.777 E224.13567
G1 X48.243 Y102.988 E224.51003
G1 X48.587 Y102.4 E224.59151
G1 X48.998 Y101.857 E224.67295
G1 X49.31 Y101.52 E224.72788
G1 X51.52 Y99.31 E225.10168
G1 X52.029 Y98.857 E225.18317
G1 X52.587 Y98.468 E225.26453
G1 X52.988 Y98.243 E225.31952
G0 F3600 X53.17 Y98.6
G1 F1800 X55.959 Y97.179 E225.69389
G1 X56.561 Y96.916 E225.77246
G1 X57.191 Y96.729 E225.85105
G1 X57.565 Y96.657 E225.8966
G1 X60.656 Y96.167 E226.2709
G1 X61.501 Y96.1 E226.37228
G1 X171.5 Y96.1 E239.52816
G1 X172.156 Y96.14 E239.60677
G1 X172.802 Y96.259 E239.68533
G1 X173.429 Y96.456 E239.76393
G1 X174.027 Y96.728 E239.8425
G1 X174.588 Y97.07 E239.92108
G1 X175.103 Y97.478 E239.99967
G1 X175.565 Y97.945 E240.07823
G1 X175.966 Y98.465 E240.15677
G1 X176.302 Y99.029 E240.23529
G1 X176.566 Y99.631 E240.3139
G1 X176.756 Y100.26 E240.39249
G1 X176.867 Y100.907 E240.471
G1 X176.9 Y101.5 E240.54203
G1 X176.9 Y121.5 E242.93403
G1 X176.86 Y122.156 E243.01264
G1 X176.741 Y122.802 E243.0912
G1 X176.544 Y123.429 E243.1698
G1 X176.272 Y124.027 E243.24837
G1 X175.93 Y124.588 E243.32695
G1 X175.522 Y125.103 E243.40554
G1 X175.055 Y125.565 E243.4841
G1 X174.535 Y125.966 E243.56264
G1 X173.971 Y126.302 E243.64116
G1 X173.369 Y126.566 E243.71977
G1 X172.74 Y126.756 E243.79836
G1 X172.093 Y126.867 E243.87687
G1 X171.5 Y126.9 E243.9479
G1 X61.501 Y126.9 E257.10378
G1 X60.656 Y126.833 E257.20516
G1 X57.565 Y126.343 E257.57946
G1 X56.923 Y126.201 E257.6581
G1 X56.304 Y125.982 E257.73663
G1 X55.959 Y125.821 E257.78217
G1 X53.17 Y124.4 E258.15653
G1 X52.603 Y124.067 E258.23517
G1 X52.082 Y123.668 E258.31366
G1 X51.803 Y123.407 E258.35935
G1 X49.593 Y121.197 E258.73315
G1 X49.157 Y120.705 E258.81178
G1 X48.785 Y120.164 E258.8903
G1 X48.6 Y119.83 E258.93596
G1 X47.179 Y117.041 E259.31033
G1 X46.916 Y116.439 E259.3889
G1 X46.729 Y115.809 E259.4675
G1 X46.657 Y115.436 E259.51293
G1 X46.167 Y112.346 E259.88711
G1 X46.103 Y111.692 E259.9657
G1 X46.12 Y111.035 E260.04431
G1 X46.167 Y110.654 E260.09022
G1 X46.657 Y107.564 E260.4644
G1 X46.799 Y106.923 E260.54292
G1 X47.018 Y106.303 E260.62157
G1 X47.179 Y105.959 E260.66699
G1 X48.6 Y103.17 E261.04136
G1 X48.933 Y102.603 E261.12
G1 X49.332 Y102.082 E261.19849
G1 X49.593 Y101.803 E261.24418
G1 X51.803 Y99.593 E261.61798
G1 X52.295 Y99.157 E261.6966
G1 X52.836 Y98.785 E261.77513
G1 X53.17 Y98.6 E261.82079
G0 F3600 X53.351 Y98.956
G1 F1800 X56.14 Y97.535 E262.19515
G1 X56.72 Y97.284 E262.27074
G1 X57.627 Y97.052 E262.38271
G1 X60.718 Y96.562 E262.75701
G1 X61.501 Y96.5 E262.85095
G1 X171.5 Y96.5 E276.00683
G1 X172.131 Y96.54 E276.08245
G1 X172.752 Y96.659 E276.15807
G1 X173.352 Y96.856 E276.2336
G1 X173.924 Y97.127 E276.3093
G1 X174.456 Y97.467 E276.38481
G1 X174.941 Y97.873 E276.46046
G1 X175.371 Y98.336 E276.53603
G1 X175.74 Y98.85 E276.61171
G1 X176.04 Y99.406 E276.68727
G1 X176.268 Y99.995 E276.76281
G1 X176.42 Y100.609 E276.83846
G1 X176.5 Y101.5 E276.94545
G1 X176.5 Y121.5 E279.33745
G1 X176.46 Y122.131 E279.41307
