%
(Header)
(Generated by gcodetools from Inkscape.)
(Using default header. To add your own header create file "header" in the output dir.)
M3
(Header end.)
G21 (All units in mm)

(Start cutting path id: path822)
(Change tool to Default tool)

G00 Z5.000000
G00 X1467.027200 Y1451.749900

G01 Z-0.125000 F100.0(Penetrate)
G02 X1466.206834 Y1447.625644 Z-0.125000 I-10.777200 J-0.000000 F400.000000
G02 X1463.870631 Y1444.129269 Z-0.125000 I-9.956834 J4.124256
G02 X1460.374256 Y1441.793066 Z-0.125000 I-7.620631 J7.620631
G02 X1456.250000 Y1440.972700 Z-0.125000 I-4.124256 J9.956834
G02 X1452.125744 Y1441.793066 Z-0.125000 I-0.000000 J10.777200
G02 X1448.629369 Y1444.129269 Z-0.125000 I4.124256 J9.956834
G02 X1446.293166 Y1447.625644 Z-0.125000 I7.620631 J7.620631
G02 X1445.472800 Y1451.749900 Z-0.125000 I9.956834 J4.124256
G02 X1446.293166 Y1455.874156 Z-0.125000 I10.777200 J0.000000
G02 X1448.629369 Y1459.370531 Z-0.125000 I9.956834 J-4.124256
G02 X1452.125744 Y1461.706734 Z-0.125000 I7.620631 J-7.620631
G02 X1456.250000 Y1462.527100 Z-0.125000 I4.124256 J-9.956834
G02 X1460.374256 Y1461.706734 Z-0.125000 I0.000000 J-10.777200
G02 X1463.870631 Y1459.370531 Z-0.125000 I-4.124256 J-9.956834
G02 X1466.206834 Y1455.874156 Z-0.125000 I-7.620631 J-7.620631
G02 X1467.027200 Y1451.749900 Z-0.125000 I-9.956834 J-4.124256
G01 X1467.027200 Y1451.749900 Z-0.125000
G00 Z5.000000

(End cutting path id: path822)


(Start cutting path id: path828)
(Change tool to Default tool)

G00 Z5.000000
G00 X23.277072 Y120.499900

G01 Z-0.125000 F100.0(Penetrate)
G02 X22.456705 Y116.375639 Z-0.125000 I-10.777200 J-0.000000 F400.000000
G02 X20.120496 Y112.879262 Z-0.125000 I-9.956833 J4.124261
G02 X16.624114 Y110.543060 Z-0.125000 I-7.620624 J7.620638
G02 X12.499852 Y109.722700 Z-0.125000 I-4.124242 J9.956840
G02 X4.879233 Y112.879276 Z-0.125000 I0.000020 J10.777200
G02 X1.722672 Y120.499900 Z-0.125000 I7.620638 J7.620624
G02 X4.879269 Y128.120460 Z-0.125000 I10.777200 J-0.000100
G02 X12.499852 Y131.277000 Z-0.125000 I7.620603 J-7.620660
G02 X20.120461 Y128.120474 Z-0.125000 I0.000020 J-10.777200
G02 X23.277072 Y120.499900 Z-0.125000 I-7.620589 J-7.620674
G01 X23.277072 Y120.499900 Z-0.125000
G00 Z5.000000

(End cutting path id: path828)


(Start cutting path id: polygon18)
(Change tool to Default tool)

G00 Z5.000000
G00 X111.443610 Y667.684500

G01 Z-0.125000 F100.0(Penetrate)
G01 X138.443610 Y667.684500 Z-0.125000 F400.000000
G01 X138.443610 Y657.064500 Z-0.125000
G01 X165.443610 Y657.064500 Z-0.125000
G01 X165.443610 Y667.684500 Z-0.125000
G01 X192.443610 Y667.684500 Z-0.125000
G01 X192.443610 Y657.064500 Z-0.125000
G01 X219.443610 Y657.064500 Z-0.125000
G01 X219.443610 Y667.684500 Z-0.125000
G01 X246.443610 Y667.684500 Z-0.125000
G01 X246.443610 Y657.064500 Z-0.125000
G01 X273.443610 Y657.064500 Z-0.125000
G01 X273.443610 Y667.684500 Z-0.125000
G01 X300.443610 Y667.684500 Z-0.125000
G01 X300.443610 Y657.064500 Z-0.125000
G01 X327.443610 Y657.064500 Z-0.125000
G01 X327.443610 Y667.684500 Z-0.125000
G01 X354.443610 Y667.684500 Z-0.125000
G01 X354.443610 Y657.064500 Z-0.125000
G01 X381.443620 Y657.064500 Z-0.125000
G01 X381.443620 Y667.684500 Z-0.125000
G01 X408.443620 Y667.684500 Z-0.125000
G01 X408.443620 Y657.064500 Z-0.125000
G01 X435.443620 Y657.064500 Z-0.125000
G01 X435.443620 Y667.684500 Z-0.125000
G01 X462.443620 Y667.684500 Z-0.125000
G01 X462.443620 Y657.064500 Z-0.125000
G01 X489.443620 Y657.064500 Z-0.125000
G01 X489.443620 Y667.684500 Z-0.125000
G01 X516.443620 Y667.684500 Z-0.125000
G01 X516.443620 Y657.064500 Z-0.125000
G01 X543.443620 Y657.064500 Z-0.125000
G01 X543.443620 Y667.684500 Z-0.125000
G01 X570.443620 Y667.684500 Z-0.125000
G01 X570.443620 Y657.064500 Z-0.125000
G01 X597.443620 Y657.064500 Z-0.125000
G01 X597.443620 Y667.684500 Z-0.125000
G01 X624.443620 Y667.684500 Z-0.125000
G01 X624.443620 Y657.064500 Z-0.125000
G01 X651.443620 Y657.064500 Z-0.125000
G01 X651.443620 Y667.684500 Z-0.125000
G01 X678.443620 Y667.684500 Z-0.125000
G01 X678.443620 Y657.064500 Z-0.125000
G01 X705.443620 Y657.064500 Z-0.125000
G01 X705.443620 Y667.684500 Z-0.125000
G01 X732.443620 Y667.684500 Z-0.125000
G01 X732.443620 Y657.064500 Z-0.125000
G01 X759.443620 Y657.064500 Z-0.125000
G01 X759.443620 Y667.684500 Z-0.125000
G01 X786.443620 Y667.684500 Z-0.125000
G01 X786.443620 Y657.064500 Z-0.125000
G01 X813.443620 Y657.064500 Z-0.125000
G01 X813.443620 Y667.684500 Z-0.125000
G01 X840.443620 Y667.684500 Z-0.125000
G01 X840.443620 Y657.064500 Z-0.125000
G01 X867.443620 Y657.064500 Z-0.125000
G01 X867.443620 Y667.684500 Z-0.125000
G01 X894.443620 Y667.684500 Z-0.125000
G01 X894.443620 Y657.064500 Z-0.125000
G01 X921.443620 Y657.064500 Z-0.125000
G01 X921.443620 Y667.684500 Z-0.125000
G01 X948.443620 Y667.684500 Z-0.125000
G01 X948.443620 Y657.064500 Z-0.125000
G01 X975.443620 Y657.064500 Z-0.125000
G01 X975.443620 Y667.684500 Z-0.125000
G01 X1002.443600 Y667.684500 Z-0.125000
G01 X1002.443600 Y657.064500 Z-0.125000
G01 X1029.443600 Y657.064500 Z-0.125000
G01 X1029.443600 Y667.684500 Z-0.125000
G01 X1063.193600 Y667.684500 Z-0.125000
G01 X1063.193600 Y657.064500 Z-0.125000
G01 X1086.323600 Y657.064500 Z-0.125000
G01 X1086.323600 Y633.934500 Z-0.125000
G01 X1096.943600 Y633.934500 Z-0.125000
G01 X1096.943600 Y600.184500 Z-0.125000
G01 X1086.323600 Y600.184500 Z-0.125000
G01 X1086.323600 Y573.184500 Z-0.125000
G01 X1096.943600 Y573.184500 Z-0.125000
G01 X1096.943600 Y546.184500 Z-0.125000
G01 X1086.323600 Y546.184500 Z-0.125000
G01 X1086.323600 Y519.184500 Z-0.125000
G01 X1096.943600 Y519.184500 Z-0.125000
G01 X1096.943600 Y492.184500 Z-0.125000
G01 X1086.323600 Y492.184500 Z-0.125000
G01 X1086.323600 Y465.184500 Z-0.125000
G01 X1096.943600 Y465.184500 Z-0.125000
G01 X1096.943600 Y438.184600 Z-0.125000
G01 X1086.323600 Y438.184600 Z-0.125000
G01 X1086.323600 Y411.184600 Z-0.125000
G01 X1096.943600 Y411.184600 Z-0.125000
G01 X1096.943600 Y384.184600 Z-0.125000
G01 X1086.323600 Y384.184600 Z-0.125000
G01 X1086.323600 Y357.184600 Z-0.125000
G01 X1096.943600 Y357.184600 Z-0.125000
G01 X1096.943600 Y330.184600 Z-0.125000
G01 X1086.323600 Y330.184600 Z-0.125000
G01 X1086.323600 Y303.184600 Z-0.125000
G01 X1096.943600 Y303.184600 Z-0.125000
G01 X1096.943600 Y276.184600 Z-0.125000
G01 X1086.323600 Y276.184600 Z-0.125000
G01 X1086.323600 Y249.184600 Z-0.125000
G01 X1096.943600 Y249.184600 Z-0.125000
G01 X1096.943600 Y222.184600 Z-0.125000
G01 X1086.323600 Y222.184600 Z-0.125000
G01 X1086.323600 Y195.184600 Z-0.125000
G01 X1096.943600 Y195.184600 Z-0.125000
G01 X1096.943600 Y161.434600 Z-0.125000
G01 X1086.323600 Y161.434600 Z-0.125000
G01 X1086.323600 Y138.304600 Z-0.125000
G01 X1063.193600 Y138.304600 Z-0.125000
G01 X1063.193600 Y127.684600 Z-0.125000
G01 X1029.443600 Y127.684600 Z-0.125000
G01 X1029.443600 Y138.304600 Z-0.125000
G01 X1002.443600 Y138.304600 Z-0.125000
G01 X1002.443600 Y127.684600 Z-0.125000
G01 X975.443620 Y127.684600 Z-0.125000
G01 X975.443620 Y138.304600 Z-0.125000
G01 X948.443620 Y138.304600 Z-0.125000
G01 X948.443620 Y127.684600 Z-0.125000
G01 X921.443620 Y127.684600 Z-0.125000
G01 X921.443620 Y138.304600 Z-0.125000
G01 X894.443620 Y138.304600 Z-0.125000
G01 X894.443620 Y127.684600 Z-0.125000
G01 X867.443620 Y127.684600 Z-0.125000
G01 X867.443620 Y138.304600 Z-0.125000
G01 X840.443620 Y138.304600 Z-0.125000
G01 X840.443620 Y127.684600 Z-0.125000
G01 X813.443620 Y127.684600 Z-0.125000
G01 X813.443620 Y138.304600 Z-0.125000
G01 X786.443620 Y138.304600 Z-0.125000
G01 X786.443620 Y127.684600 Z-0.125000
G01 X759.443620 Y127.684600 Z-0.125000
G01 X759.443620 Y138.304600 Z-0.125000
G01 X732.443620 Y138.304600 Z-0.125000
G01 X732.443620 Y127.684600 Z-0.125000
G01 X705.443620 Y127.684600 Z-0.125000
G01 X705.443620 Y138.304600 Z-0.125000
G01 X678.443620 Y138.304600 Z-0.125000
G01 X678.443620 Y127.684600 Z-0.125000
G01 X651.443620 Y127.684600 Z-0.125000
G01 X651.443620 Y138.304600 Z-0.125000
G01 X624.443620 Y138.304600 Z-0.125000
G01 X624.443620 Y127.684600 Z-0.125000
G01 X597.443620 Y127.684600 Z-0.125000
G01 X597.443620 Y138.304600 Z-0.125000
G01 X570.443620 Y138.304600 Z-0.125000
G01 X570.443620 Y127.684600 Z-0.125000
G01 X543.443620 Y127.684600 Z-0.125000
G01 X543.443620 Y138.304600 Z-0.125000
G01 X516.443620 Y138.304600 Z-0.125000
G01 X516.443620 Y127.684600 Z-0.125000
G01 X489.443620 Y127.684600 Z-0.125000
G01 X489.443620 Y138.304600 Z-0.125000
G01 X462.443620 Y138.304600 Z-0.125000
G01 X462.443620 Y127.684600 Z-0.125000
G01 X435.443620 Y127.684600 Z-0.125000
G01 X435.443620 Y138.304600 Z-0.125000
G01 X408.443620 Y138.304600 Z-0.125000
G01 X408.443620 Y127.684600 Z-0.125000
G01 X381.443620 Y127.684600 Z-0.125000
G01 X381.443620 Y138.304600 Z-0.125000
G01 X354.443610 Y138.304600 Z-0.125000
G01 X354.443610 Y127.684600 Z-0.125000
G01 X327.443610 Y127.684600 Z-0.125000
G01 X327.443610 Y138.304600 Z-0.125000
G01 X300.443610 Y138.304600 Z-0.125000
G01 X300.443610 Y127.684600 Z-0.125000
G01 X273.443610 Y127.684600 Z-0.125000
G01 X273.443610 Y138.304600 Z-0.125000
G01 X246.443610 Y138.304600 Z-0.125000
G01 X246.443610 Y127.684600 Z-0.125000
G01 X219.443610 Y127.684600 Z-0.125000
G01 X219.443610 Y138.304600 Z-0.125000
G01 X192.443610 Y138.304600 Z-0.125000
G01 X192.443610 Y127.684600 Z-0.125000
G01 X165.443610 Y127.684600 Z-0.125000
G01 X165.443610 Y138.304600 Z-0.125000
G01 X138.443610 Y138.304600 Z-0.125000
G01 X138.443610 Y127.684600 Z-0.125000
G01 X111.443610 Y127.684600 Z-0.125000
G01 X111.443610 Y138.304600 Z-0.125000
G01 X84.443602 Y138.304600 Z-0.125000
G01 X84.443602 Y127.684600 Z-0.125000
G01 X50.693602 Y127.684600 Z-0.125000
G01 X50.693602 Y138.304600 Z-0.125000
G01 X27.563602 Y138.304600 Z-0.125000
G01 X27.563602 Y161.434600 Z-0.125000
G01 X16.943602 Y161.434600 Z-0.125000
G01 X16.943602 Y195.184600 Z-0.125000
G01 X27.563602 Y195.184600 Z-0.125000
G01 X27.563602 Y222.184600 Z-0.125000
G01 X16.943602 Y222.184600 Z-0.125000
G01 X16.943602 Y249.184600 Z-0.125000
G01 X27.563602 Y249.184600 Z-0.125000
G01 X27.563602 Y276.184600 Z-0.125000
G01 X16.943602 Y276.184600 Z-0.125000
G01 X16.943602 Y303.184600 Z-0.125000
G01 X27.563602 Y303.184600 Z-0.125000
G01 X27.563602 Y330.184600 Z-0.125000
G01 X16.943602 Y330.184600 Z-0.125000
G01 X16.943602 Y357.184600 Z-0.125000
G01 X27.563602 Y357.184600 Z-0.125000
G01 X27.563602 Y384.184600 Z-0.125000
G01 X16.943602 Y384.184600 Z-0.125000
G01 X16.943602 Y411.184600 Z-0.125000
G01 X27.563602 Y411.184600 Z-0.125000
G01 X27.563602 Y438.184600 Z-0.125000
G01 X16.943602 Y438.184600 Z-0.125000
G01 X16.943602 Y465.184500 Z-0.125000
G01 X27.563602 Y465.184500 Z-0.125000
G01 X27.563602 Y492.184500 Z-0.125000
G01 X16.943602 Y492.184500 Z-0.125000
G01 X16.943602 Y519.184500 Z-0.125000
G01 X27.563602 Y519.184500 Z-0.125000
G01 X27.563602 Y546.184500 Z-0.125000
G01 X16.943602 Y546.184500 Z-0.125000
G01 X16.943602 Y573.184500 Z-0.125000
G01 X27.563602 Y573.184500 Z-0.125000
G01 X27.563602 Y600.184500 Z-0.125000
G01 X16.943602 Y600.184500 Z-0.125000
G01 X16.943602 Y633.934500 Z-0.125000
G01 X27.563602 Y633.934500 Z-0.125000
G01 X27.563602 Y657.064500 Z-0.125000
G01 X50.693602 Y657.064500 Z-0.125000
G01 X50.693602 Y667.684500 Z-0.125000
G01 X84.443602 Y667.684500 Z-0.125000
G01 X84.443602 Y657.064500 Z-0.125000
G01 X111.443610 Y657.064500 Z-0.125000
G01 X111.443610 Y667.684500 Z-0.125000
G00 Z5.000000

(End cutting path id: polygon18)


(Start cutting path id: polygon14)
(Change tool to Default tool)

G00 Z5.000000
G00 X1116.938600 Y465.184500

G01 Z-0.125000 F100.0(Penetrate)
G01 X1106.318600 Y465.184500 Z-0.125000 F400.000000
G01 X1106.318600 Y492.184500 Z-0.125000
G01 X1116.938600 Y492.184500 Z-0.125000
G01 X1116.938600 Y519.184500 Z-0.125000
G01 X1106.318600 Y519.184500 Z-0.125000
G01 X1106.318600 Y546.184500 Z-0.125000
G01 X1116.938600 Y546.184500 Z-0.125000
G01 X1116.938600 Y573.184500 Z-0.125000
G01 X1106.318600 Y573.184500 Z-0.125000
G01 X1106.318600 Y600.184500 Z-0.125000
G01 X1116.938600 Y600.184500 Z-0.125000
G01 X1116.938600 Y633.934500 Z-0.125000
G01 X1106.318600 Y633.934500 Z-0.125000
G01 X1106.318600 Y657.064500 Z-0.125000
G01 X1149.068600 Y657.064500 Z-0.125000
G01 X1149.068600 Y667.684500 Z-0.125000
G01 X1191.818600 Y667.684500 Z-0.125000
G01 X1191.818600 Y657.064500 Z-0.125000
G01 X1218.818600 Y657.064500 Z-0.125000
G01 X1218.818600 Y667.684500 Z-0.125000
G01 X1245.818600 Y667.684500 Z-0.125000
G01 X1245.818600 Y657.064500 Z-0.125000
G01 X1272.818600 Y657.064500 Z-0.125000
G01 X1272.818600 Y667.684500 Z-0.125000
G01 X1299.818600 Y667.684500 Z-0.125000
G01 X1299.818600 Y657.064500 Z-0.125000
G01 X1326.818600 Y657.064500 Z-0.125000
G01 X1326.818600 Y667.684500 Z-0.125000
G01 X1353.818600 Y667.684500 Z-0.125000
G01 X1353.818600 Y657.064500 Z-0.125000
G01 X1380.818600 Y657.064500 Z-0.125000
G01 X1380.818600 Y667.684500 Z-0.125000
G01 X1423.568600 Y667.684500 Z-0.125000
G01 X1423.568600 Y657.064500 Z-0.125000
G01 X1466.318600 Y657.064500 Z-0.125000
G01 X1466.318600 Y633.934500 Z-0.125000
G01 X1455.698600 Y633.934500 Z-0.125000
G01 X1455.698600 Y600.184500 Z-0.125000
G01 X1466.318600 Y600.184500 Z-0.125000
G01 X1466.318600 Y573.184500 Z-0.125000
G01 X1455.698600 Y573.184500 Z-0.125000
G01 X1455.698600 Y546.184500 Z-0.125000
G01 X1466.318600 Y546.184500 Z-0.125000
G01 X1466.318600 Y519.184500 Z-0.125000
G01 X1455.698600 Y519.184500 Z-0.125000
G01 X1455.698600 Y492.184500 Z-0.125000
G01 X1466.318600 Y492.184500 Z-0.125000
G01 X1466.318600 Y465.184500 Z-0.125000
G01 X1455.698600 Y465.184500 Z-0.125000
G01 X1455.698600 Y438.184600 Z-0.125000
G01 X1466.318600 Y438.184600 Z-0.125000
G01 X1466.318600 Y411.184600 Z-0.125000
G01 X1455.698600 Y411.184600 Z-0.125000
G01 X1455.698600 Y384.184600 Z-0.125000
G01 X1466.318600 Y384.184600 Z-0.125000
G01 X1466.318600 Y357.184600 Z-0.125000
G01 X1455.698600 Y357.184600 Z-0.125000
G01 X1455.698600 Y330.184600 Z-0.125000
G01 X1466.318600 Y330.184600 Z-0.125000
G01 X1466.318600 Y303.184600 Z-0.125000
G01 X1455.698600 Y303.184600 Z-0.125000
G01 X1455.698600 Y276.184600 Z-0.125000
G01 X1466.318600 Y276.184600 Z-0.125000
G01 X1466.318600 Y249.184600 Z-0.125000
G01 X1455.698600 Y249.184600 Z-0.125000
G01 X1455.698600 Y222.184600 Z-0.125000
G01 X1466.318600 Y222.184600 Z-0.125000
G01 X1466.318600 Y195.184600 Z-0.125000
G01 X1455.698600 Y195.184600 Z-0.125000
G01 X1455.698600 Y161.434600 Z-0.125000
G01 X1466.318600 Y161.434600 Z-0.125000
G01 X1466.318600 Y138.304600 Z-0.125000
G01 X1423.568600 Y138.304600 Z-0.125000
G01 X1423.568600 Y127.684600 Z-0.125000
G01 X1380.818600 Y127.684600 Z-0.125000
G01 X1380.818600 Y138.304600 Z-0.125000
G01 X1353.818600 Y138.304600 Z-0.125000
G01 X1353.818600 Y127.684600 Z-0.125000
G01 X1326.818600 Y127.684600 Z-0.125000
G01 X1326.818600 Y138.304600 Z-0.125000
G01 X1299.818600 Y138.304600 Z-0.125000
G01 X1299.818600 Y127.684600 Z-0.125000
G01 X1272.818600 Y127.684600 Z-0.125000
G01 X1272.818600 Y138.304600 Z-0.125000
G01 X1245.818600 Y138.304600 Z-0.125000
G01 X1245.818600 Y127.684600 Z-0.125000
G01 X1218.818600 Y127.684600 Z-0.125000
G01 X1218.818600 Y138.304600 Z-0.125000
G01 X1191.818600 Y138.304600 Z-0.125000
G01 X1191.818600 Y127.684600 Z-0.125000
G01 X1149.068600 Y127.684600 Z-0.125000
G01 X1149.068600 Y138.304600 Z-0.125000
G01 X1106.318600 Y138.304600 Z-0.125000
G01 X1106.318600 Y161.434600 Z-0.125000
G01 X1116.938600 Y161.434600 Z-0.125000
G01 X1116.938600 Y195.184600 Z-0.125000
G01 X1106.318600 Y195.184600 Z-0.125000
G01 X1106.318600 Y222.184600 Z-0.125000
G01 X1116.938600 Y222.184600 Z-0.125000
G01 X1116.938600 Y249.184600 Z-0.125000
G01 X1106.318600 Y249.184600 Z-0.125000
G01 X1106.318600 Y276.184600 Z-0.125000
G01 X1116.938600 Y276.184600 Z-0.125000
G01 X1116.938600 Y303.184600 Z-0.125000
G01 X1106.318600 Y303.184600 Z-0.125000
G01 X1106.318600 Y330.184600 Z-0.125000
G01 X1116.938600 Y330.184600 Z-0.125000
G01 X1116.938600 Y357.184600 Z-0.125000
G01 X1106.318600 Y357.184600 Z-0.125000
G01 X1106.318600 Y384.184600 Z-0.125000
G01 X1116.938600 Y384.184600 Z-0.125000
G01 X1116.938600 Y411.184600 Z-0.125000
G01 X1106.318600 Y411.184600 Z-0.125000
G01 X1106.318600 Y438.184600 Z-0.125000
G01 X1116.938600 Y438.184600 Z-0.125000
G01 X1116.938600 Y465.184500 Z-0.125000
G00 Z5.000000

(End cutting path id: polygon14)


(Start cutting path id: polygon10)
(Change tool to Default tool)

G00 Z5.000000
G00 X1117.925500 Y962.856770

G01 Z-0.125000 F100.0(Penetrate)
G01 X1107.305500 Y962.856770 Z-0.125000 F400.000000
G01 X1107.305500 Y989.856770 Z-0.125000
G01 X1117.925500 Y989.856770 Z-0.125000
G01 X1117.925500 Y1016.856770 Z-0.125000
G01 X1107.305500 Y1016.856770 Z-0.125000
G01 X1107.305500 Y1043.856770 Z-0.125000
G01 X1117.925500 Y1043.856770 Z-0.125000
G01 X1117.925500 Y1070.856770 Z-0.125000
G01 X1107.305500 Y1070.856770 Z-0.125000
G01 X1107.305500 Y1097.856770 Z-0.125000
G01 X1117.925500 Y1097.856770 Z-0.125000
G01 X1117.925500 Y1124.856770 Z-0.125000
G01 X1107.305500 Y1124.856770 Z-0.125000
G01 X1107.305500 Y1151.856770 Z-0.125000
G01 X1117.925500 Y1151.856770 Z-0.125000
G01 X1117.925500 Y1185.606770 Z-0.125000
G01 X1107.305500 Y1185.606770 Z-0.125000
G01 X1107.305500 Y1208.736770 Z-0.125000
G01 X1150.055500 Y1208.736770 Z-0.125000
G01 X1150.055500 Y1219.356770 Z-0.125000
G01 X1192.805500 Y1219.356770 Z-0.125000
G01 X1192.805500 Y1208.736770 Z-0.125000
G01 X1219.805500 Y1208.736770 Z-0.125000
G01 X1219.805500 Y1219.356770 Z-0.125000
G01 X1246.805500 Y1219.356770 Z-0.125000
G01 X1246.805500 Y1208.736770 Z-0.125000
G01 X1273.805500 Y1208.736770 Z-0.125000
G01 X1273.805500 Y1219.356770 Z-0.125000
G01 X1300.805500 Y1219.356770 Z-0.125000
G01 X1300.805500 Y1208.736770 Z-0.125000
G01 X1327.805500 Y1208.736770 Z-0.125000
G01 X1327.805500 Y1219.356770 Z-0.125000
G01 X1354.805500 Y1219.356770 Z-0.125000
G01 X1354.805500 Y1208.736770 Z-0.125000
G01 X1381.805500 Y1208.736770 Z-0.125000
G01 X1381.805500 Y1219.356770 Z-0.125000
G01 X1424.555500 Y1219.356770 Z-0.125000
G01 X1424.555500 Y1208.736770 Z-0.125000
G01 X1467.305500 Y1208.736770 Z-0.125000
G01 X1467.305500 Y1185.606770 Z-0.125000
G01 X1456.685500 Y1185.606770 Z-0.125000
G01 X1456.685500 Y1151.856770 Z-0.125000
G01 X1467.305500 Y1151.856770 Z-0.125000
G01 X1467.305500 Y1124.856770 Z-0.125000
G01 X1456.685500 Y1124.856770 Z-0.125000
G01 X1456.685500 Y1097.856770 Z-0.125000
G01 X1467.305500 Y1097.856770 Z-0.125000
G01 X1467.305500 Y1070.856770 Z-0.125000
G01 X1456.685500 Y1070.856770 Z-0.125000
G01 X1456.685500 Y1043.856770 Z-0.125000
G01 X1467.305500 Y1043.856770 Z-0.125000
G01 X1467.305500 Y1016.856770 Z-0.125000
G01 X1456.685500 Y1016.856770 Z-0.125000
G01 X1456.685500 Y989.856770 Z-0.125000
G01 X1467.305500 Y989.856770 Z-0.125000
G01 X1467.305500 Y962.856770 Z-0.125000
G01 X1456.685500 Y962.856770 Z-0.125000
G01 X1456.685500 Y935.856760 Z-0.125000
G01 X1467.305500 Y935.856760 Z-0.125000
G01 X1467.305500 Y908.856760 Z-0.125000
G01 X1456.685500 Y908.856760 Z-0.125000
G01 X1456.685500 Y881.856760 Z-0.125000
G01 X1467.305500 Y881.856760 Z-0.125000
G01 X1467.305500 Y854.856760 Z-0.125000
G01 X1456.685500 Y854.856760 Z-0.125000
G01 X1456.685500 Y827.856760 Z-0.125000
G01 X1467.305500 Y827.856760 Z-0.125000
G01 X1467.305500 Y800.856760 Z-0.125000
G01 X1456.685500 Y800.856760 Z-0.125000
G01 X1456.685500 Y773.856760 Z-0.125000
G01 X1467.305500 Y773.856760 Z-0.125000
G01 X1467.305500 Y746.856760 Z-0.125000
G01 X1456.685500 Y746.856760 Z-0.125000
G01 X1456.685500 Y713.106800 Z-0.125000
G01 X1467.305500 Y713.106800 Z-0.125000
G01 X1467.305500 Y689.976800 Z-0.125000
G01 X1424.555500 Y689.976800 Z-0.125000
G01 X1424.555500 Y679.356800 Z-0.125000
G01 X1381.805500 Y679.356800 Z-0.125000
G01 X1381.805500 Y689.976800 Z-0.125000
G01 X1354.805500 Y689.976800 Z-0.125000
G01 X1354.805500 Y679.356800 Z-0.125000
G01 X1327.805500 Y679.356800 Z-0.125000
G01 X1327.805500 Y689.976800 Z-0.125000
G01 X1300.805500 Y689.976800 Z-0.125000
G01 X1300.805500 Y679.356800 Z-0.125000
G01 X1273.805500 Y679.356800 Z-0.125000
G01 X1273.805500 Y689.976800 Z-0.125000
G01 X1246.805500 Y689.976800 Z-0.125000
G01 X1246.805500 Y679.356800 Z-0.125000
G01 X1219.805500 Y679.356800 Z-0.125000
G01 X1219.805500 Y689.976800 Z-0.125000
G01 X1192.805500 Y689.976800 Z-0.125000
G01 X1192.805500 Y679.356800 Z-0.125000
G01 X1150.055500 Y679.356800 Z-0.125000
G01 X1150.055500 Y689.976800 Z-0.125000
G01 X1107.305500 Y689.976800 Z-0.125000
G01 X1107.305500 Y713.106800 Z-0.125000
G01 X1117.925500 Y713.106800 Z-0.125000
G01 X1117.925500 Y746.856760 Z-0.125000
G01 X1107.305500 Y746.856760 Z-0.125000
G01 X1107.305500 Y773.856760 Z-0.125000
G01 X1117.925500 Y773.856760 Z-0.125000
G01 X1117.925500 Y800.856760 Z-0.125000
G01 X1107.305500 Y800.856760 Z-0.125000
G01 X1107.305500 Y827.856760 Z-0.125000
G01 X1117.925500 Y827.856760 Z-0.125000
G01 X1117.925500 Y854.856760 Z-0.125000
G01 X1107.305500 Y854.856760 Z-0.125000
G01 X1107.305500 Y881.856760 Z-0.125000
G01 X1117.925500 Y881.856760 Z-0.125000
G01 X1117.925500 Y908.856760 Z-0.125000
G01 X1107.305500 Y908.856760 Z-0.125000
G01 X1107.305500 Y935.856760 Z-0.125000
G01 X1117.925500 Y935.856760 Z-0.125000
G01 X1117.925500 Y962.856770 Z-0.125000
G00 Z5.000000

(End cutting path id: polygon10)


(Start cutting path id: polygon6)
(Change tool to Default tool)

G00 Z5.000000
G00 X191.338400 Y1391.382690

G01 Z-0.125000 F100.0(Penetrate)
G01 X191.338400 Y1402.002690 Z-0.125000 F400.000000
G01 X218.338400 Y1402.002690 Z-0.125000
G01 X218.338400 Y1391.382690 Z-0.125000
G01 X245.338400 Y1391.382690 Z-0.125000
G01 X245.338400 Y1402.002690 Z-0.125000
G01 X272.338410 Y1402.002690 Z-0.125000
G01 X272.338410 Y1391.382690 Z-0.125000
G01 X299.338410 Y1391.382690 Z-0.125000
G01 X299.338410 Y1402.002690 Z-0.125000
G01 X326.338410 Y1402.002690 Z-0.125000
G01 X326.338410 Y1391.382690 Z-0.125000
G01 X353.338410 Y1391.382690 Z-0.125000
G01 X353.338410 Y1402.002690 Z-0.125000
G01 X380.338410 Y1402.002690 Z-0.125000
G01 X380.338410 Y1391.382690 Z-0.125000
G01 X407.338410 Y1391.382690 Z-0.125000
G01 X407.338410 Y1402.002690 Z-0.125000
G01 X434.338410 Y1402.002690 Z-0.125000
G01 X434.338410 Y1391.382690 Z-0.125000
G01 X461.338410 Y1391.382690 Z-0.125000
G01 X461.338410 Y1402.002690 Z-0.125000
G01 X488.338410 Y1402.002690 Z-0.125000
G01 X488.338410 Y1391.382690 Z-0.125000
G01 X515.338410 Y1391.382690 Z-0.125000
G01 X515.338410 Y1402.002690 Z-0.125000
G01 X542.338410 Y1402.002690 Z-0.125000
G01 X542.338410 Y1391.382690 Z-0.125000
G01 X569.338420 Y1391.382690 Z-0.125000
G01 X569.338420 Y1402.002690 Z-0.125000
G01 X596.338420 Y1402.002690 Z-0.125000
G01 X596.338420 Y1391.382690 Z-0.125000
G01 X623.338420 Y1391.382690 Z-0.125000
G01 X623.338420 Y1402.002690 Z-0.125000
G01 X650.338420 Y1402.002690 Z-0.125000
G01 X650.338420 Y1391.382690 Z-0.125000
G01 X677.338420 Y1391.382690 Z-0.125000
G01 X677.338420 Y1402.002690 Z-0.125000
G01 X704.338420 Y1402.002690 Z-0.125000
G01 X704.338420 Y1391.382690 Z-0.125000
G01 X731.338420 Y1391.382690 Z-0.125000
G01 X731.338420 Y1402.002690 Z-0.125000
G01 X758.338420 Y1402.002690 Z-0.125000
G01 X758.338420 Y1391.382690 Z-0.125000
G01 X785.338420 Y1391.382690 Z-0.125000
G01 X785.338420 Y1402.002690 Z-0.125000
G01 X812.338420 Y1402.002690 Z-0.125000
G01 X812.338420 Y1391.382690 Z-0.125000
G01 X839.338420 Y1391.382690 Z-0.125000
G01 X839.338420 Y1402.002690 Z-0.125000
G01 X866.338420 Y1402.002690 Z-0.125000
G01 X866.338420 Y1391.382690 Z-0.125000
G01 X893.338420 Y1391.382690 Z-0.125000
G01 X893.338420 Y1402.002690 Z-0.125000
G01 X920.338420 Y1402.002690 Z-0.125000
G01 X920.338420 Y1391.382690 Z-0.125000
G01 X947.338410 Y1391.382690 Z-0.125000
G01 X947.338410 Y1402.002690 Z-0.125000
G01 X974.338410 Y1402.002690 Z-0.125000
G01 X974.338410 Y1391.382690 Z-0.125000
G01 X1001.338400 Y1391.382690 Z-0.125000
G01 X1001.338400 Y1402.002690 Z-0.125000
G01 X1028.338400 Y1402.002690 Z-0.125000
G01 X1028.338400 Y1391.382690 Z-0.125000
G01 X1062.088400 Y1391.382690 Z-0.125000
G01 X1062.088400 Y1402.002690 Z-0.125000
G01 X1095.838400 Y1402.002690 Z-0.125000
G01 X1095.838400 Y1359.252690 Z-0.125000
G01 X1085.218400 Y1359.252690 Z-0.125000
G01 X1085.218400 Y1316.502690 Z-0.125000
G01 X1095.838400 Y1316.502690 Z-0.125000
G01 X1095.838400 Y1289.502690 Z-0.125000
G01 X1085.218400 Y1289.502690 Z-0.125000
G01 X1085.218400 Y1262.502690 Z-0.125000
G01 X1095.838400 Y1262.502690 Z-0.125000
G01 X1095.838400 Y1235.502690 Z-0.125000
G01 X1085.218400 Y1235.502690 Z-0.125000
G01 X1085.218400 Y1208.502690 Z-0.125000
G01 X1095.838400 Y1208.502690 Z-0.125000
G01 X1095.838400 Y1181.502690 Z-0.125000
G01 X1085.218400 Y1181.502690 Z-0.125000
G01 X1085.218400 Y1154.502690 Z-0.125000
G01 X1095.838400 Y1154.502690 Z-0.125000
G01 X1095.838400 Y1127.502690 Z-0.125000
G01 X1085.218400 Y1127.502690 Z-0.125000
G01 X1085.218400 Y1084.752690 Z-0.125000
G01 X1095.838400 Y1084.752690 Z-0.125000
G01 X1095.838400 Y1042.002680 Z-0.125000
G01 X1062.088400 Y1042.002680 Z-0.125000
G01 X1062.088400 Y1052.622680 Z-0.125000
G01 X1028.338400 Y1052.622680 Z-0.125000
G01 X1028.338400 Y1042.002680 Z-0.125000
G01 X1001.338400 Y1042.002680 Z-0.125000
G01 X1001.338400 Y1052.622680 Z-0.125000
G01 X974.338410 Y1052.622680 Z-0.125000
G01 X974.338410 Y1042.002680 Z-0.125000
G01 X947.338410 Y1042.002680 Z-0.125000
G01 X947.338410 Y1052.622680 Z-0.125000
G01 X920.338420 Y1052.622680 Z-0.125000
G01 X920.338420 Y1042.002680 Z-0.125000
G01 X893.338420 Y1042.002680 Z-0.125000
G01 X893.338420 Y1052.622680 Z-0.125000
G01 X866.338420 Y1052.622680 Z-0.125000
G01 X866.338420 Y1042.002680 Z-0.125000
G01 X839.338420 Y1042.002680 Z-0.125000
G01 X839.338420 Y1052.622680 Z-0.125000
G01 X812.338420 Y1052.622680 Z-0.125000
G01 X812.338420 Y1042.002680 Z-0.125000
G01 X785.338420 Y1042.002680 Z-0.125000
G01 X785.338420 Y1052.622680 Z-0.125000
G01 X758.338420 Y1052.622680 Z-0.125000
G01 X758.338420 Y1042.002680 Z-0.125000
G01 X731.338420 Y1042.002680 Z-0.125000
G01 X731.338420 Y1052.622680 Z-0.125000
G01 X704.338420 Y1052.622680 Z-0.125000
G01 X704.338420 Y1042.002680 Z-0.125000
G01 X677.338420 Y1042.002680 Z-0.125000
G01 X677.338420 Y1052.622680 Z-0.125000
G01 X650.338420 Y1052.622680 Z-0.125000
G01 X650.338420 Y1042.002680 Z-0.125000
G01 X623.338420 Y1042.002680 Z-0.125000
G01 X623.338420 Y1052.622680 Z-0.125000
G01 X596.338420 Y1052.622680 Z-0.125000
G01 X596.338420 Y1042.002680 Z-0.125000
G01 X569.338420 Y1042.002680 Z-0.125000
G01 X569.338420 Y1052.622680 Z-0.125000
G01 X542.338410 Y1052.622680 Z-0.125000
G01 X542.338410 Y1042.002680 Z-0.125000
G01 X515.338410 Y1042.002680 Z-0.125000
G01 X515.338410 Y1052.622680 Z-0.125000
G01 X488.338410 Y1052.622680 Z-0.125000
G01 X488.338410 Y1042.002680 Z-0.125000
G01 X461.338410 Y1042.002680 Z-0.125000
G01 X461.338410 Y1052.622680 Z-0.125000
G01 X434.338410 Y1052.622680 Z-0.125000
G01 X434.338410 Y1042.002680 Z-0.125000
G01 X407.338410 Y1042.002680 Z-0.125000
G01 X407.338410 Y1052.622680 Z-0.125000
G01 X380.338410 Y1052.622680 Z-0.125000
G01 X380.338410 Y1042.002680 Z-0.125000
G01 X353.338410 Y1042.002680 Z-0.125000
G01 X353.338410 Y1052.622680 Z-0.125000
G01 X326.338410 Y1052.622680 Z-0.125000
G01 X326.338410 Y1042.002680 Z-0.125000
G01 X299.338410 Y1042.002680 Z-0.125000
G01 X299.338410 Y1052.622680 Z-0.125000
G01 X272.338410 Y1052.622680 Z-0.125000
G01 X272.338410 Y1042.002680 Z-0.125000
G01 X245.338400 Y1042.002680 Z-0.125000
G01 X245.338400 Y1052.622680 Z-0.125000
G01 X218.338400 Y1052.622680 Z-0.125000
G01 X218.338400 Y1042.002680 Z-0.125000
G01 X191.338400 Y1042.002680 Z-0.125000
G01 X191.338400 Y1052.622680 Z-0.125000
G01 X164.338400 Y1052.622680 Z-0.125000
G01 X164.338400 Y1042.002680 Z-0.125000
G01 X137.338400 Y1042.002680 Z-0.125000
G01 X137.338400 Y1052.622680 Z-0.125000
G01 X110.338400 Y1052.622680 Z-0.125000
G01 X110.338400 Y1042.002680 Z-0.125000
G01 X83.338392 Y1042.002680 Z-0.125000
G01 X83.338392 Y1052.622680 Z-0.125000
G01 X49.588392 Y1052.622680 Z-0.125000
G01 X49.588392 Y1042.002680 Z-0.125000
G01 X15.838392 Y1042.002680 Z-0.125000
G01 X15.838392 Y1084.752690 Z-0.125000
G01 X26.458392 Y1084.752690 Z-0.125000
G01 X26.458392 Y1127.502690 Z-0.125000
G01 X15.838392 Y1127.502690 Z-0.125000
G01 X15.838392 Y1154.502690 Z-0.125000
G01 X26.458392 Y1154.502690 Z-0.125000
G01 X26.458392 Y1181.502690 Z-0.125000
G01 X15.838392 Y1181.502690 Z-0.125000
G01 X15.838392 Y1208.502690 Z-0.125000
G01 X26.458392 Y1208.502690 Z-0.125000
G01 X26.458392 Y1235.502690 Z-0.125000
G01 X15.838392 Y1235.502690 Z-0.125000
G01 X15.838392 Y1262.502690 Z-0.125000
G01 X26.458392 Y1262.502690 Z-0.125000
G01 X26.458392 Y1289.502690 Z-0.125000
G01 X15.838392 Y1289.502690 Z-0.125000
G01 X15.838392 Y1316.502690 Z-0.125000
G01 X26.458392 Y1316.502690 Z-0.125000
G01 X26.458392 Y1359.252690 Z-0.125000
G01 X15.838392 Y1359.252690 Z-0.125000
G01 X15.838392 Y1402.002690 Z-0.125000
G01 X49.588392 Y1402.002690 Z-0.125000
G01 X49.588392 Y1391.382690 Z-0.125000
G01 X83.338392 Y1391.382690 Z-0.125000
G01 X83.338392 Y1402.002690 Z-0.125000
G01 X110.338400 Y1402.002690 Z-0.125000
G01 X110.338400 Y1391.382690 Z-0.125000
G01 X137.338400 Y1391.382690 Z-0.125000
G01 X137.338400 Y1402.002690 Z-0.125000
G01 X164.338400 Y1402.002690 Z-0.125000
G01 X164.338400 Y1391.382690 Z-0.125000
G01 X191.338400 Y1391.382690 Z-0.125000
G00 Z5.000000

(End cutting path id: polygon6)


(Start cutting path id: polygon2)
(Change tool to Default tool)

G00 Z5.000000
G00 X111.443610 Y1017.064510

G01 Z-0.125000 F100.0(Penetrate)
G01 X138.443610 Y1017.064510 Z-0.125000 F400.000000
G01 X138.443610 Y1027.684510 Z-0.125000
G01 X165.443610 Y1027.684510 Z-0.125000
G01 X165.443610 Y1017.064510 Z-0.125000
G01 X192.443610 Y1017.064510 Z-0.125000
G01 X192.443610 Y1027.684510 Z-0.125000
G01 X219.443610 Y1027.684510 Z-0.125000
G01 X219.443610 Y1017.064510 Z-0.125000
G01 X246.443610 Y1017.064510 Z-0.125000
G01 X246.443610 Y1027.684510 Z-0.125000
G01 X273.443610 Y1027.684510 Z-0.125000
G01 X273.443610 Y1017.064510 Z-0.125000
G01 X300.443610 Y1017.064510 Z-0.125000
G01 X300.443610 Y1027.684510 Z-0.125000
G01 X327.443610 Y1027.684510 Z-0.125000
G01 X327.443610 Y1017.064510 Z-0.125000
G01 X354.443610 Y1017.064510 Z-0.125000
G01 X354.443610 Y1027.684510 Z-0.125000
G01 X381.443620 Y1027.684510 Z-0.125000
G01 X381.443620 Y1017.064510 Z-0.125000
G01 X408.443620 Y1017.064510 Z-0.125000
G01 X408.443620 Y1027.684510 Z-0.125000
G01 X435.443620 Y1027.684510 Z-0.125000
G01 X435.443620 Y1017.064510 Z-0.125000
G01 X462.443620 Y1017.064510 Z-0.125000
G01 X462.443620 Y1027.684510 Z-0.125000
G01 X489.443620 Y1027.684510 Z-0.125000
G01 X489.443620 Y1017.064510 Z-0.125000
G01 X516.443620 Y1017.064510 Z-0.125000
G01 X516.443620 Y1027.684510 Z-0.125000
G01 X543.443620 Y1027.684510 Z-0.125000
G01 X543.443620 Y1017.064510 Z-0.125000
G01 X570.443620 Y1017.064510 Z-0.125000
G01 X570.443620 Y1027.684510 Z-0.125000
G01 X597.443620 Y1027.684510 Z-0.125000
G01 X597.443620 Y1017.064510 Z-0.125000
G01 X624.443620 Y1017.064510 Z-0.125000
G01 X624.443620 Y1027.684510 Z-0.125000
G01 X651.443620 Y1027.684510 Z-0.125000
G01 X651.443620 Y1017.064510 Z-0.125000
G01 X678.443620 Y1017.064510 Z-0.125000
G01 X678.443620 Y1027.684510 Z-0.125000
G01 X705.443620 Y1027.684510 Z-0.125000
G01 X705.443620 Y1017.064510 Z-0.125000
G01 X732.443620 Y1017.064510 Z-0.125000
G01 X732.443620 Y1027.684510 Z-0.125000
G01 X759.443620 Y1027.684510 Z-0.125000
G01 X759.443620 Y1017.064510 Z-0.125000
G01 X786.443620 Y1017.064510 Z-0.125000
G01 X786.443620 Y1027.684510 Z-0.125000
G01 X813.443620 Y1027.684510 Z-0.125000
G01 X813.443620 Y1017.064510 Z-0.125000
G01 X840.443620 Y1017.064510 Z-0.125000
G01 X840.443620 Y1027.684510 Z-0.125000
G01 X867.443620 Y1027.684510 Z-0.125000
G01 X867.443620 Y1017.064510 Z-0.125000
G01 X894.443620 Y1017.064510 Z-0.125000
G01 X894.443620 Y1027.684510 Z-0.125000
G01 X921.443620 Y1027.684510 Z-0.125000
G01 X921.443620 Y1017.064510 Z-0.125000
G01 X948.443620 Y1017.064510 Z-0.125000
G01 X948.443620 Y1027.684510 Z-0.125000
G01 X975.443620 Y1027.684510 Z-0.125000
G01 X975.443620 Y1017.064510 Z-0.125000
G01 X1002.443600 Y1017.064510 Z-0.125000
G01 X1002.443600 Y1027.684510 Z-0.125000
G01 X1029.443600 Y1027.684510 Z-0.125000
G01 X1029.443600 Y1017.064510 Z-0.125000
G01 X1063.193600 Y1017.064510 Z-0.125000
G01 X1063.193600 Y1027.684510 Z-0.125000
G01 X1096.943600 Y1027.684510 Z-0.125000
G01 X1096.943600 Y984.934500 Z-0.125000
G01 X1086.323600 Y984.934500 Z-0.125000
G01 X1086.323600 Y942.184500 Z-0.125000
G01 X1096.943600 Y942.184500 Z-0.125000
G01 X1096.943600 Y915.184500 Z-0.125000
G01 X1086.323600 Y915.184500 Z-0.125000
G01 X1086.323600 Y888.184500 Z-0.125000
G01 X1096.943600 Y888.184500 Z-0.125000
G01 X1096.943600 Y861.184500 Z-0.125000
G01 X1086.323600 Y861.184500 Z-0.125000
G01 X1086.323600 Y834.184500 Z-0.125000
G01 X1096.943600 Y834.184500 Z-0.125000
G01 X1096.943600 Y807.184500 Z-0.125000
G01 X1086.323600 Y807.184500 Z-0.125000
G01 X1086.323600 Y780.184500 Z-0.125000
G01 X1096.943600 Y780.184500 Z-0.125000
G01 X1096.943600 Y753.184500 Z-0.125000
G01 X1086.323600 Y753.184500 Z-0.125000
G01 X1086.323600 Y710.434500 Z-0.125000
G01 X1096.943600 Y710.434500 Z-0.125000
G01 X1096.943600 Y667.684500 Z-0.125000
G01 X1063.193600 Y667.684500 Z-0.125000
G01 X1063.193600 Y678.304500 Z-0.125000
G01 X1029.443600 Y678.304500 Z-0.125000
G01 X1029.443600 Y667.684500 Z-0.125000
G01 X1002.443600 Y667.684500 Z-0.125000
G01 X1002.443600 Y678.304500 Z-0.125000
G01 X975.443620 Y678.304500 Z-0.125000
G01 X975.443620 Y667.684500 Z-0.125000
G01 X948.443620 Y667.684500 Z-0.125000
G01 X948.443620 Y678.304500 Z-0.125000
G01 X921.443620 Y678.304500 Z-0.125000
G01 X921.443620 Y667.684500 Z-0.125000
G01 X894.443620 Y667.684500 Z-0.125000
G01 X894.443620 Y678.304500 Z-0.125000
G01 X867.443620 Y678.304500 Z-0.125000
G01 X867.443620 Y667.684500 Z-0.125000
G01 X840.443620 Y667.684500 Z-0.125000
G01 X840.443620 Y678.304500 Z-0.125000
G01 X813.443620 Y678.304500 Z-0.125000
G01 X813.443620 Y667.684500 Z-0.125000
G01 X786.443620 Y667.684500 Z-0.125000
G01 X786.443620 Y678.304500 Z-0.125000
G01 X759.443620 Y678.304500 Z-0.125000
G01 X759.443620 Y667.684500 Z-0.125000
G01 X732.443620 Y667.684500 Z-0.125000
G01 X732.443620 Y678.304500 Z-0.125000
G01 X705.443620 Y678.304500 Z-0.125000
G01 X705.443620 Y667.684500 Z-0.125000
G01 X678.443620 Y667.684500 Z-0.125000
G01 X678.443620 Y678.304500 Z-0.125000
G01 X651.443620 Y678.304500 Z-0.125000
G01 X651.443620 Y667.684500 Z-0.125000
G01 X624.443620 Y667.684500 Z-0.125000
G01 X624.443620 Y678.304500 Z-0.125000
G01 X597.443620 Y678.304500 Z-0.125000
G01 X597.443620 Y667.684500 Z-0.125000
G01 X570.443620 Y667.684500 Z-0.125000
G01 X570.443620 Y678.304500 Z-0.125000
G01 X543.443620 Y678.304500 Z-0.125000
G01 X543.443620 Y667.684500 Z-0.125000
G01 X516.443620 Y667.684500 Z-0.125000
G01 X516.443620 Y678.304500 Z-0.125000
G01 X489.443620 Y678.304500 Z-0.125000
G01 X489.443620 Y667.684500 Z-0.125000
G01 X462.443620 Y667.684500 Z-0.125000
G01 X462.443620 Y678.304500 Z-0.125000
G01 X435.443620 Y678.304500 Z-0.125000
G01 X435.443620 Y667.684500 Z-0.125000
G01 X408.443620 Y667.684500 Z-0.125000
G01 X408.443620 Y678.304500 Z-0.125000
G01 X381.443620 Y678.304500 Z-0.125000
G01 X381.443620 Y667.684500 Z-0.125000
G01 X354.443610 Y667.684500 Z-0.125000
G01 X354.443610 Y678.304500 Z-0.125000
G01 X327.443610 Y678.304500 Z-0.125000
G01 X327.443610 Y667.684500 Z-0.125000
G01 X300.443610 Y667.684500 Z-0.125000
G01 X300.443610 Y678.304500 Z-0.125000
G01 X273.443610 Y678.304500 Z-0.125000
G01 X273.443610 Y667.684500 Z-0.125000
G01 X246.443610 Y667.684500 Z-0.125000
G01 X246.443610 Y678.304500 Z-0.125000
G01 X219.443610 Y678.304500 Z-0.125000
G01 X219.443610 Y667.684500 Z-0.125000
G01 X192.443610 Y667.684500 Z-0.125000
G01 X192.443610 Y678.304500 Z-0.125000
G01 X165.443610 Y678.304500 Z-0.125000
G01 X165.443610 Y667.684500 Z-0.125000
G01 X138.443610 Y667.684500 Z-0.125000
G01 X138.443610 Y678.304500 Z-0.125000
G01 X111.443610 Y678.304500 Z-0.125000
G01 X111.443610 Y667.684500 Z-0.125000
G01 X84.443602 Y667.684500 Z-0.125000
G01 X84.443602 Y678.304500 Z-0.125000
G01 X50.693602 Y678.304500 Z-0.125000
G01 X50.693602 Y667.684500 Z-0.125000
G01 X16.943602 Y667.684500 Z-0.125000
G01 X16.943602 Y710.434500 Z-0.125000
G01 X27.563602 Y710.434500 Z-0.125000
G01 X27.563602 Y753.184500 Z-0.125000
G01 X16.943602 Y753.184500 Z-0.125000
G01 X16.943602 Y780.184500 Z-0.125000
G01 X27.563602 Y780.184500 Z-0.125000
G01 X27.563602 Y807.184500 Z-0.125000
G01 X16.943602 Y807.184500 Z-0.125000
G01 X16.943602 Y834.184500 Z-0.125000
G01 X27.563602 Y834.184500 Z-0.125000
G01 X27.563602 Y861.184500 Z-0.125000
G01 X16.943602 Y861.184500 Z-0.125000
G01 X16.943602 Y888.184500 Z-0.125000
G01 X27.563602 Y888.184500 Z-0.125000
G01 X27.563602 Y915.184500 Z-0.125000
G01 X16.943602 Y915.184500 Z-0.125000
G01 X16.943602 Y942.184500 Z-0.125000
G01 X27.563602 Y942.184500 Z-0.125000
G01 X27.563602 Y984.934500 Z-0.125000
G01 X16.943602 Y984.934500 Z-0.125000
G01 X16.943602 Y1027.684510 Z-0.125000
G01 X50.693602 Y1027.684510 Z-0.125000
G01 X50.693602 Y1017.064510 Z-0.125000
G01 X84.443602 Y1017.064510 Z-0.125000
G01 X84.443602 Y1027.684510 Z-0.125000
G01 X111.443610 Y1027.684510 Z-0.125000
G01 X111.443610 Y1017.064510 Z-0.125000
G00 Z5.000000

(End cutting path id: polygon2)


(Footer)
M5
G00 X0.0000 Y0.0000
M2
(Using default footer. To add your own footer create file "footer" in the output dir.)
(end)
%