%
(Header)
(Generated by gcodetools from Inkscape.)
(Using default header. To add your own header create file "header" in the output dir.)
M3 S1 F500
(Header end.)
G21 (All units in mm)

(Start cutting path id: circle881)
(Change tool to Default tool)

M63 P0
G00 X92.824045 Y67.354960

M62 P0(Penetrate)
G03 X92.521564 Y68.085211 Z0.000000 I-1.032731 J-0.000001 F400.000000
G03 X91.791313 Y68.387690 Z0.000000 I-0.730251 J-0.730252
G03 X91.061062 Y68.085210 Z0.000000 I0.000000 J-1.032731
G03 X90.758582 Y67.354960 Z0.000000 I0.730251 J-0.730252
G03 X91.061062 Y66.624710 Z0.000000 I1.032731 J0.000002
G03 X91.791313 Y66.322230 Z0.000000 I0.730251 J0.730252
G03 X92.521564 Y66.624709 Z0.000000 I0.000001 J1.032731
G03 X92.824045 Y67.354960 Z0.000000 I-0.730251 J0.730252
G01 X92.824045 Y67.354960 Z0.000000
M63 P0

(End cutting path id: circle881)


(Start cutting path id: circle879)
(Change tool to Default tool)

M63 P0
G00 X92.824045 Y100.754950

M62 P0(Penetrate)
G03 X92.745435 Y101.150162 Z0.000000 I-1.032731 J0.000008 F400.000000
G03 X92.521568 Y101.485207 Z0.000000 I-0.954122 J-0.395203
G03 X92.186524 Y101.709077 Z0.000000 I-0.730254 J-0.730249
G03 X91.791313 Y101.787690 Z0.000000 I-0.395211 J-0.954119
G03 X91.396102 Y101.709077 Z0.000000 I0.000000 J-1.032731
G03 X91.061059 Y101.485207 Z0.000000 I0.395212 J-0.954119
G03 X90.837192 Y101.150162 Z0.000000 I0.730255 J-0.730248
G03 X90.758582 Y100.754950 Z0.000000 I0.954122 J-0.395203
G03 X91.061062 Y100.024700 Z0.000000 I1.032731 J0.000001
G03 X91.791313 Y99.722220 Z0.000000 I0.730251 J0.730252
G03 X92.521564 Y100.024699 Z0.000000 I0.000001 J1.032731
G03 X92.824045 Y100.754950 Z0.000000 I-0.730251 J0.730252
G01 X92.824045 Y100.754950 Z0.000000
M63 P0

(End cutting path id: circle879)


(Start cutting path id: path877)
(Change tool to Default tool)

M63 P0
G00 X19.504041 Y100.754950

M62 P0(Penetrate)
G03 X19.425431 Y101.150162 Z0.000000 I-1.032731 J0.000008 F400.000000
G03 X19.201564 Y101.485207 Z0.000000 I-0.954122 J-0.395203
G03 X18.866521 Y101.709077 Z0.000000 I-0.730255 J-0.730248
G03 X18.471310 Y101.787690 Z0.000000 I-0.395212 J-0.954119
G03 X18.076099 Y101.709077 Z0.000000 I-0.000001 J-1.032731
G03 X17.741055 Y101.485207 Z0.000000 I0.395211 J-0.954119
G03 X17.517188 Y101.150162 Z0.000000 I0.730254 J-0.730249
G03 X17.438578 Y100.754950 Z0.000000 I0.954122 J-0.395203
G03 X17.741059 Y100.024699 Z0.000000 I1.032731 J0.000002
G03 X18.471310 Y99.722220 Z0.000000 I0.730251 J0.730252
G03 X19.201561 Y100.024700 Z0.000000 I-0.000000 J1.032731
G03 X19.504041 Y100.754950 Z0.000000 I-0.730251 J0.730252
G01 X19.504041 Y100.754950 Z0.000000
M63 P0

(End cutting path id: path877)


(Start cutting path id: circle869)
(Change tool to Default tool)

M63 P0
G00 X118.517570 Y6.622560

M62 P0(Penetrate)
G03 X119.630033 Y7.083357 Z0.000000 I-0.000000 J1.573260 F400.000000
G03 X120.090830 Y8.195820 Z0.000000 I-1.112463 J1.112463
G03 X119.630033 Y9.308283 Z0.000000 I-1.573260 J-0.000000
G03 X118.517570 Y9.769080 Z0.000000 I-1.112463 J-1.112463
G03 X117.405107 Y9.308283 Z0.000000 I0.000000 J-1.573260
G03 X116.944310 Y8.195820 Z0.000000 I1.112463 J-1.112463
G03 X117.405107 Y7.083357 Z0.000000 I1.573260 J0.000000
G03 X118.517570 Y6.622560 Z0.000000 I1.112463 J1.112463
G01 X118.517570 Y6.622560 Z0.000000
M63 P0

(End cutting path id: circle869)


(Start cutting path id: circle867)
(Change tool to Default tool)

M63 P0
G00 X118.517570 Y90.662550

M62 P0(Penetrate)
G03 X119.630033 Y91.123347 Z0.000000 I-0.000000 J1.573260 F400.000000
G03 X120.090830 Y92.235810 Z0.000000 I-1.112463 J1.112463
G03 X119.630033 Y93.348273 Z0.000000 I-1.573260 J-0.000000
G03 X118.517570 Y93.809070 Z0.000000 I-1.112463 J-1.112463
G03 X117.405107 Y93.348273 Z0.000000 I0.000000 J-1.573260
G03 X116.944310 Y92.235810 Z0.000000 I1.112463 J-1.112463
G03 X117.405107 Y91.123347 Z0.000000 I1.573260 J0.000000
G03 X118.517570 Y90.662550 Z0.000000 I1.112463 J1.112463
G01 X118.517570 Y90.662550 Z0.000000
M63 P0

(End cutting path id: circle867)


(Start cutting path id: circle865)
(Change tool to Default tool)

M63 P0
G00 X167.377580 Y14.052550

M62 P0(Penetrate)
G03 X168.490043 Y14.513347 Z0.000000 I-0.000000 J1.573260 F400.000000
G03 X168.950840 Y15.625810 Z0.000000 I-1.112463 J1.112463
G03 X168.490043 Y16.738273 Z0.000000 I-1.573260 J-0.000000
G03 X167.377580 Y17.199070 Z0.000000 I-1.112463 J-1.112463
G03 X166.265117 Y16.738273 Z0.000000 I0.000000 J-1.573260
G03 X165.804320 Y15.625810 Z0.000000 I1.112463 J-1.112463
G03 X166.265117 Y14.513347 Z0.000000 I1.573260 J0.000000
G03 X167.377580 Y14.052550 Z0.000000 I1.112463 J1.112463
G01 X167.377580 Y14.052550 Z0.000000
M63 P0

(End cutting path id: circle865)


(Start cutting path id: circle863)
(Change tool to Default tool)

M63 P0
G00 X167.377580 Y89.362570

M62 P0(Penetrate)
G03 X168.490043 Y89.823367 Z0.000000 I-0.000000 J1.573260 F400.000000
G03 X168.950840 Y90.935830 Z0.000000 I-1.112463 J1.112463
G03 X168.490043 Y92.048293 Z0.000000 I-1.573260 J-0.000000
G03 X167.377580 Y92.509090 Z0.000000 I-1.112463 J-1.112463
G03 X166.265117 Y92.048293 Z0.000000 I0.000000 J-1.573260
G03 X165.804320 Y90.935830 Z0.000000 I1.112463 J-1.112463
G03 X166.265117 Y89.823367 Z0.000000 I1.573260 J0.000000
G03 X167.377580 Y89.362570 Z0.000000 I1.112463 J1.112463
G01 X167.377580 Y89.362570 Z0.000000
M63 P0

(End cutting path id: circle863)


(Start cutting path id: rect812)
(Change tool to Default tool)

M63 P0
G00 X4.810102 Y111.460850

M62 P0(Penetrate)
G01 X180.197760 Y111.460850 Z0.000000 F400.000000
G01 X180.197760 Y4.350090 Z0.000000
G01 X4.810102 Y4.350090 Z0.000000
G01 X4.810102 Y111.460850 Z0.000000
M63 P0

(End cutting path id: rect812)


(Start cutting path id: circle822)
(Change tool to Default tool)

M63 P0
G00 X9.242986 Y7.905070

M62 P0(Penetrate)
G02 X8.825588 Y6.897386 Z0.000000 I-1.425083 J0.000003 F400.000000
G02 X7.817903 Y6.479990 Z0.000000 I-1.007685 J1.007687
G02 X6.810218 Y6.897386 Z0.000000 I-0.000000 J1.425083
G02 X6.392820 Y7.905070 Z0.000000 I1.007685 J1.007687
G02 X6.810218 Y8.912754 Z0.000000 I1.425083 J-0.000003
G02 X7.817903 Y9.330150 Z0.000000 I1.007685 J-1.007687
G02 X8.825588 Y8.912754 Z0.000000 I0.000000 J-1.425083
G02 X9.242986 Y7.905070 Z0.000000 I-1.007685 J-1.007687
G01 X9.242986 Y7.905070 Z0.000000
M63 P0

(End cutting path id: circle822)


(Start cutting path id: circle820)
(Change tool to Default tool)

M63 P0
G00 X178.243300 Y7.907360

M62 P0(Penetrate)
G02 X177.825903 Y6.899677 Z0.000000 I-1.425083 J0.000003 F400.000000
G02 X176.818220 Y6.482280 Z0.000000 I-1.007686 J1.007686
G02 X175.810537 Y6.899677 Z0.000000 I0.000003 J1.425083
G02 X175.393140 Y7.907360 Z0.000000 I1.007686 J1.007686
G02 X175.810537 Y8.915043 Z0.000000 I1.425083 J-0.000003
G02 X176.818220 Y9.332440 Z0.000000 I1.007686 J-1.007686
G02 X177.825903 Y8.915043 Z0.000000 I-0.000003 J-1.425083
G02 X178.243300 Y7.907360 Z0.000000 I-1.007686 J-1.007686
G01 X178.243300 Y7.907360 Z0.000000
M63 P0

(End cutting path id: circle820)


(Start cutting path id: circle818)
(Change tool to Default tool)

M63 P0
G00 X9.241407 Y108.411690

M62 P0(Penetrate)
G02 X8.824009 Y107.404006 Z0.000000 I-1.425083 J0.000003 F400.000000
G02 X7.816324 Y106.986610 Z0.000000 I-1.007685 J1.007687
G02 X6.808639 Y107.404006 Z0.000000 I-0.000000 J1.425083
G02 X6.391241 Y108.411690 Z0.000000 I1.007685 J1.007687
G02 X6.499717 Y108.957048 Z0.000000 I1.425083 J0.000007
G02 X6.808636 Y109.419380 Z0.000000 I1.316607 J-0.545351
G02 X7.270967 Y109.728301 Z0.000000 I1.007688 J-1.007683
G02 X7.816324 Y109.836780 Z0.000000 I0.545357 J-1.316604
G02 X8.361681 Y109.728301 Z0.000000 I0.000000 J-1.425083
G02 X8.824012 Y109.419380 Z0.000000 I-0.545357 J-1.316604
G02 X9.132931 Y108.957048 Z0.000000 I-1.007688 J-1.007683
G02 X9.241407 Y108.411690 Z0.000000 I-1.316607 J-0.545351
G01 X9.241407 Y108.411690 Z0.000000
M63 P0

(End cutting path id: circle818)


(Start cutting path id: circle816)
(Change tool to Default tool)

M63 P0
G00 X178.247620 Y108.420220

M62 P0(Penetrate)
G02 X177.830223 Y107.412537 Z0.000000 I-1.425083 J0.000003 F400.000000
G02 X176.822540 Y106.995140 Z0.000000 I-1.007686 J1.007686
G02 X175.814857 Y107.412537 Z0.000000 I0.000003 J1.425083
G02 X175.397460 Y108.420220 Z0.000000 I1.007686 J1.007686
G02 X175.505936 Y108.965577 Z0.000000 I1.425083 J0.000007
G02 X175.814854 Y109.427909 Z0.000000 I1.316607 J-0.545350
G02 X176.277184 Y109.736831 Z0.000000 I1.007689 J-1.007682
G02 X176.822540 Y109.845310 Z0.000000 I0.545359 J-1.316603
G02 X177.367896 Y109.736831 Z0.000000 I-0.000003 J-1.425083
G02 X177.830226 Y109.427909 Z0.000000 I-0.545359 J-1.316603
G02 X178.139144 Y108.965577 Z0.000000 I-1.007689 J-1.007682
G02 X178.247620 Y108.420220 Z0.000000 I-1.316607 J-0.545350
G01 X178.247620 Y108.420220 Z0.000000
M63 P0

(End cutting path id: circle816)


(Footer)
M5
G00 X0.0000 Y0.0000
M2
(Using default footer. To add your own footer create file "footer" in the output dir.)
(end)
%