<<<<<<< HEAD
%
(Header)
(Generated by gcodetools from Inkscape.)
(Using default header. To add your own header create file "header" in the output dir.)
M3 S1 F500
(Header end.)
G21 (All units in mm)

(Start cutting path id: circle850)
(Change tool to Default tool)

M63 P0
G00 X204.000000 Y80.924836

M62 P0(Penetrate)
G03 X205.559493 Y81.235038 Z0.000000 I0.000001 J4.075149 F400.000000
G03 X206.881567 Y82.118419 Z0.000000 I-1.559491 J3.764947
G03 X207.764948 Y83.440493 Z0.000000 I-2.881565 J2.881565
G03 X208.075150 Y84.999986 Z0.000000 I-3.764947 J1.559491
G03 X207.764948 Y86.559479 Z0.000000 I-4.075149 J0.000001
G03 X206.881567 Y87.881553 Z0.000000 I-3.764947 J-1.559491
G03 X205.559493 Y88.764934 Z0.000000 I-2.881565 J-2.881565
G03 X204.000000 Y89.075136 Z0.000000 I-1.559491 J-3.764947
G03 X202.440507 Y88.764934 Z0.000000 I-0.000001 J-4.075149
G03 X201.118433 Y87.881553 Z0.000000 I1.559491 J-3.764947
G03 X200.235052 Y86.559479 Z0.000000 I2.881565 J-2.881565
G03 X199.924850 Y84.999986 Z0.000000 I3.764947 J-1.559491
G03 X200.235052 Y83.440493 Z0.000000 I4.075149 J-0.000001
G03 X201.118433 Y82.118419 Z0.000000 I3.764947 J1.559491
G03 X202.440507 Y81.235038 Z0.000000 I2.881565 J2.881565
G03 X204.000000 Y80.924836 Z0.000000 I1.559491 J3.764947
G01 X204.000000 Y80.924836 Z0.000000
M63 P0

(End cutting path id: circle850)


(Start cutting path id: circle844)
(Change tool to Default tool)

M63 P0
G00 X7.999999 Y25.324826

M62 P0(Penetrate)
G03 X9.559491 Y25.635028 Z0.000000 I0.000000 J4.075149 F400.000000
G03 X10.881565 Y26.518410 Z0.000000 I-1.559492 J3.764946
G03 X11.764946 Y27.840484 Z0.000000 I-2.881566 J2.881565
G03 X12.075148 Y29.399976 Z0.000000 I-3.764947 J1.559491
G03 X11.764946 Y30.959468 Z0.000000 I-4.075149 J0.000001
G03 X10.881565 Y32.281542 Z0.000000 I-3.764947 J-1.559491
G03 X9.559491 Y33.164924 Z0.000000 I-2.881566 J-2.881565
G03 X7.999999 Y33.475126 Z0.000000 I-1.559492 J-3.764946
G03 X6.440507 Y33.164923 Z0.000000 I0.000001 J-4.075149
G03 X5.118434 Y32.281542 Z0.000000 I1.559493 J-3.764946
G03 X4.235053 Y30.959468 Z0.000000 I2.881566 J-2.881564
G03 X3.924851 Y29.399976 Z0.000000 I3.764947 J-1.559491
G03 X4.235053 Y27.840484 Z0.000000 I4.075149 J-0.000001
G03 X5.118434 Y26.518410 Z0.000000 I3.764947 J1.559491
G03 X6.440507 Y25.635029 Z0.000000 I2.881566 J2.881564
G03 X7.999999 Y25.324826 Z0.000000 I1.559493 J3.764946
G01 X7.999999 Y25.324826 Z0.000000
M63 P0

(End cutting path id: circle844)


(Start cutting path id: circle842)
(Change tool to Default tool)

M63 P0
G00 X7.999999 Y136.524836

M62 P0(Penetrate)
G03 X9.559491 Y136.835038 Z0.000000 I0.000000 J4.075149 F400.000000
G03 X10.881565 Y137.718420 Z0.000000 I-1.559492 J3.764946
G03 X11.764946 Y139.040494 Z0.000000 I-2.881566 J2.881565
G03 X12.075148 Y140.599986 Z0.000000 I-3.764947 J1.559491
G03 X11.764946 Y142.159478 Z0.000000 I-4.075149 J0.000001
G03 X10.881565 Y143.481552 Z0.000000 I-3.764947 J-1.559491
G03 X9.559491 Y144.364934 Z0.000000 I-2.881566 J-2.881565
G03 X7.999999 Y144.675136 Z0.000000 I-1.559492 J-3.764946
G03 X6.440507 Y144.364933 Z0.000000 I0.000001 J-4.075149
G03 X5.118434 Y143.481552 Z0.000000 I1.559493 J-3.764946
G03 X4.235053 Y142.159478 Z0.000000 I2.881566 J-2.881564
G03 X3.924851 Y140.599986 Z0.000000 I3.764947 J-1.559491
G03 X4.235053 Y139.040494 Z0.000000 I4.075149 J-0.000001
G03 X5.118434 Y137.718420 Z0.000000 I3.764947 J1.559491
G03 X6.440507 Y136.835039 Z0.000000 I2.881566 J2.881564
G03 X7.999999 Y136.524836 Z0.000000 I1.559493 J3.764946
G01 X7.999999 Y136.524836 Z0.000000
M63 P0

(End cutting path id: circle842)


(Start cutting path id: rect824)
(Change tool to Default tool)

M63 P0
G00 X0.059695 Y169.940288

M62 P0(Penetrate)
G01 X0.059695 Y0.059676 Z0.000000 F400.000000
G01 X211.940310 Y0.059676 Z0.000000
G01 X211.940310 Y169.940288 Z0.000000
G01 X0.059695 Y169.940288 Z0.000000
M63 P0

(End cutting path id: rect824)


(Start cutting path id: rect822)
(Change tool to Default tool)

M63 P0
G00 X148.450150 Y148.623196

M62 P0(Penetrate)
G01 X148.450150 Y21.099836 Z0.000000 F400.000000
G01 X63.249861 Y21.099836 Z0.000000
G01 X63.249861 Y148.623196 Z0.000000
G01 X94.680594 Y148.625196 Z0.000000
G02 X98.050847 Y156.308228 Z0.000000 I11.192534 J-0.329021
G02 X105.850000 Y159.484126 Z0.000000 I7.799153 J-7.988364
G02 X113.649874 Y156.307637 Z0.000000 I0.000000 J-11.164546
G02 X117.016220 Y148.626206 Z0.000000 I-7.814472 J-8.003007
G01 X148.450150 Y148.623196 Z0.000000
M63 P0
=======
G20 (Units are in Inches)
F24.00000
G61 (Go to exact corners)
#201 = 3 (number of passes)
#200 = 0.000000 (move the bed up incrementally by this much in inches)
#300 = 0 (bed movement distance storage variable)
#100 = 1 (layer number storage variable)
G1 W0.00000 (make sure bed is 0.0000 before you cut first pass)
o101 WHILE [#100 LE #201] (the number of passes is that the number after LE, LE = less or equal to)
G0 X5.84214 Y10.82060
M3 S1
G1 X5.84214 Y5.80000 M62 P0
G1 X2.48780 Y5.80000
G1 X2.48780 Y10.82060
G1 X3.72523 Y10.82068
G1 X3.72523 Y10.82068
G1 X3.72550 Y10.82779
G1 X3.72587 Y10.83486
G1 X3.72636 Y10.84191
G1 X3.72696 Y10.84893
G1 X3.72766 Y10.85591
G1 X3.72848 Y10.86286
G1 X3.72940 Y10.86978
G1 X3.73043 Y10.87666
G1 X3.73156 Y10.88351
G1 X3.73280 Y10.89032
G1 X3.73414 Y10.89710
G1 X3.73558 Y10.90383
G1 X3.73713 Y10.91053
G1 X3.73878 Y10.91719
G1 X3.74053 Y10.92381
G1 X3.74237 Y10.93039
G1 X3.74432 Y10.93693
G1 X3.74636 Y10.94342
G1 X3.74851 Y10.94987
G1 X3.75074 Y10.95627
G1 X3.75307 Y10.96263
G1 X3.75550 Y10.96895
G1 X3.75802 Y10.97521
G1 X3.76063 Y10.98143
G1 X3.76334 Y10.98760
G1 X3.76613 Y10.99372
G1 X3.76902 Y10.99979
G1 X3.77199 Y11.00581
G1 X3.77505 Y11.01177
G1 X3.77820 Y11.01768
G1 X3.78144 Y11.02354
G1 X3.78476 Y11.02934
G1 X3.78817 Y11.03509
G1 X3.79166 Y11.04078
G1 X3.79524 Y11.04641
G1 X3.79889 Y11.05199
G1 X3.80263 Y11.05750
G1 X3.80645 Y11.06296
G1 X3.81035 Y11.06836
G1 X3.81433 Y11.07369
G1 X3.81838 Y11.07896
G1 X3.82252 Y11.08417
G1 X3.82673 Y11.08931
G1 X3.83101 Y11.09439
G1 X3.83537 Y11.09940
G1 X3.83980 Y11.10434
G1 X3.84431 Y11.10922
G1 X3.84889 Y11.11403
G1 X3.85354 Y11.11877
G1 X3.85826 Y11.12343
G1 X3.86305 Y11.12803
G1 X3.86790 Y11.13256
G1 X3.87283 Y11.13701
G1 X3.87782 Y11.14139
G1 X3.88288 Y11.14569
G1 X3.88800 Y11.14992
G1 X3.89319 Y11.15407
G1 X3.89844 Y11.15815
G1 X3.90376 Y11.16214
G1 X3.90913 Y11.16606
G1 X3.91457 Y11.16990
G1 X3.92007 Y11.17366
G1 X3.92562 Y11.17733
G1 X3.93124 Y11.18092
G1 X3.93691 Y11.18444
G1 X3.94264 Y11.18786
G1 X3.94842 Y11.19120
G1 X3.95426 Y11.19446
G1 X3.96015 Y11.19763
G1 X3.96610 Y11.20071
G1 X3.97210 Y11.20370
G1 X3.97815 Y11.20661
G1 X3.98425 Y11.20942
G1 X3.99040 Y11.21214
G1 X3.99660 Y11.21477
G1 X4.00285 Y11.21731
G1 X4.00914 Y11.21976
G1 X4.01548 Y11.22211
G1 X4.02187 Y11.22436
G1 X4.02830 Y11.22652
G1 X4.03478 Y11.22858
G1 X4.04129 Y11.23055
G1 X4.04785 Y11.23241
G1 X4.05445 Y11.23418
G1 X4.06110 Y11.23584
G1 X4.06778 Y11.23741
G1 X4.07450 Y11.23887
G1 X4.08125 Y11.24023
G1 X4.08805 Y11.24149
G1 X4.09488 Y11.24264
G1 X4.10174 Y11.24368
G1 X4.10864 Y11.24462
G1 X4.11558 Y11.24545
G1 X4.12254 Y11.24618
G1 X4.12954 Y11.24679
G1 X4.13657 Y11.24730
G1 X4.14363 Y11.24769
G1 X4.15071 Y11.24797
G1 X4.15783 Y11.24814
G1 X4.16497 Y11.24820
G1 X4.17212 Y11.24814
G1 X4.17923 Y11.24797
G1 X4.18632 Y11.24769
G1 X4.19338 Y11.24730
G1 X4.20041 Y11.24679
G1 X4.20741 Y11.24618
G1 X4.21437 Y11.24545
G1 X4.22131 Y11.24462
G1 X4.22821 Y11.24368
G1 X4.23507 Y11.24264
G1 X4.24190 Y11.24148
G1 X4.24870 Y11.24023
G1 X4.25546 Y11.23887
G1 X4.26218 Y11.23741
G1 X4.26886 Y11.23584
G1 X4.27550 Y11.23418
G1 X4.28210 Y11.23241
G1 X4.28866 Y11.23054
G1 X4.29518 Y11.22858
G1 X4.30165 Y11.22652
G1 X4.30808 Y11.22436
G1 X4.31447 Y11.22210
G1 X4.32081 Y11.21975
G1 X4.32711 Y11.21731
G1 X4.33335 Y11.21477
G1 X4.33955 Y11.21214
G1 X4.34570 Y11.20942
G1 X4.35180 Y11.20660
G1 X4.35786 Y11.20370
G1 X4.36385 Y11.20070
G1 X4.36980 Y11.19762
G1 X4.37569 Y11.19445
G1 X4.38153 Y11.19120
G1 X4.38732 Y11.18786
G1 X4.39304 Y11.18443
G1 X4.39872 Y11.18092
G1 X4.40433 Y11.17733
G1 X4.40989 Y11.17365
G1 X4.41538 Y11.16989
G1 X4.42082 Y11.16606
G1 X4.42619 Y11.16214
G1 X4.43151 Y11.15814
G1 X4.43676 Y11.15407
G1 X4.44195 Y11.14991
G1 X4.44707 Y11.14569
G1 X4.45213 Y11.14138
G1 X4.45712 Y11.13700
G1 X4.46204 Y11.13255
G1 X4.46690 Y11.12803
G1 X4.47169 Y11.12343
G1 X4.47641 Y11.11876
G1 X4.48106 Y11.11402
G1 X4.48563 Y11.10921
G1 X4.49014 Y11.10434
G1 X4.49457 Y11.09939
G1 X4.49893 Y11.09438
G1 X4.50321 Y11.08931
G1 X4.50742 Y11.08416
G1 X4.51155 Y11.07896
G1 X4.51561 Y11.07369
G1 X4.51958 Y11.06835
G1 X4.52348 Y11.06296
G1 X4.52730 Y11.05750
G1 X4.53103 Y11.05199
G1 X4.53469 Y11.04641
G1 X4.53826 Y11.04078
G1 X4.54175 Y11.03509
G1 X4.54516 Y11.02934
G1 X4.54848 Y11.02354
G1 X4.55171 Y11.01768
G1 X4.55486 Y11.01177
G1 X4.55792 Y11.00581
G1 X4.56089 Y10.99979
G1 X4.56378 Y10.99372
G1 X4.56657 Y10.98761
G1 X4.56927 Y10.98144
G1 X4.57188 Y10.97522
G1 X4.57440 Y10.96895
G1 X4.57682 Y10.96264
G1 X4.57915 Y10.95628
G1 X4.58138 Y10.94988
G1 X4.58352 Y10.94343
G1 X4.58556 Y10.93694
G1 X4.58751 Y10.93040
G1 X4.58935 Y10.92383
G1 X4.59110 Y10.91721
G1 X4.59274 Y10.91055
G1 X4.59428 Y10.90385
G1 X4.59572 Y10.89712
G1 X4.59706 Y10.89034
G1 X4.59830 Y10.88353
G1 X4.59943 Y10.87669
G1 X4.60045 Y10.86980
G1 X4.60137 Y10.86289
G1 X4.60218 Y10.85594
G1 X4.60288 Y10.84896
G1 X4.60347 Y10.84194
G1 X4.60395 Y10.83490
G1 X4.60433 Y10.82783
G1 X4.60459 Y10.82072
G1 X5.84214 Y10.82060
M5

G0 X8.02915 Y8.15531
M3 S1
G1 X8.02915 Y8.15531 M62 P0
G1 X8.03195 Y8.15534
G1 X8.03474 Y8.15541
G1 X8.03754 Y8.15553
G1 X8.04034 Y8.15571
G1 X8.04313 Y8.15592
G1 X8.04592 Y8.15619
G1 X8.04870 Y8.15651
G1 X8.05147 Y8.15688
G1 X8.05424 Y8.15729
G1 X8.05701 Y8.15775
G1 X8.05976 Y8.15826
G1 X8.06250 Y8.15882
G1 X8.06524 Y8.15943
G1 X8.06796 Y8.16008
G1 X8.07067 Y8.16078
G1 X8.07337 Y8.16153
G1 X8.07605 Y8.16232
G1 X8.07872 Y8.16317
G1 X8.08138 Y8.16406
G1 X8.08402 Y8.16499
G1 X8.08664 Y8.16597
G1 X8.08925 Y8.16700
G1 X8.09183 Y8.16807
G1 X8.09440 Y8.16918
G1 X8.09695 Y8.17035
G1 X8.09948 Y8.17155
G1 X8.10198 Y8.17280
G1 X8.10447 Y8.17409
G1 X8.10693 Y8.17543
G1 X8.10936 Y8.17681
G1 X8.11178 Y8.17823
G1 X8.11417 Y8.17969
G1 X8.11653 Y8.18120
G1 X8.11886 Y8.18274
G1 X8.12117 Y8.18433
G1 X8.12345 Y8.18596
G1 X8.12570 Y8.18762
G1 X8.12792 Y8.18933
G1 X8.13011 Y8.19107
G1 X8.13227 Y8.19285
G1 X8.13440 Y8.19467
G1 X8.13650 Y8.19652
G1 X8.13856 Y8.19842
G1 X8.14060 Y8.20034
G1 X8.14259 Y8.20231
G1 X8.14456 Y8.20430
G1 X8.14648 Y8.20633
G1 X8.14837 Y8.20840
G1 X8.15023 Y8.21050
G1 X8.15205 Y8.21262
G1 X8.15383 Y8.21479
G1 X8.15557 Y8.21698
G1 X8.15728 Y8.21920
G1 X8.15894 Y8.22145
G1 X8.16057 Y8.22373
G1 X8.16216 Y8.22604
G1 X8.16370 Y8.22837
G1 X8.16521 Y8.23073
G1 X8.16667 Y8.23312
G1 X8.16809 Y8.23553
G1 X8.16947 Y8.23797
G1 X8.17080 Y8.24043
G1 X8.17210 Y8.24292
G1 X8.17335 Y8.24542
G1 X8.17455 Y8.24795
G1 X8.17571 Y8.25050
G1 X8.17683 Y8.25306
G1 X8.17790 Y8.25565
G1 X8.17893 Y8.25826
G1 X8.17991 Y8.26088
G1 X8.18084 Y8.26352
G1 X8.18173 Y8.26617
G1 X8.18257 Y8.26885
G1 X8.18337 Y8.27153
G1 X8.18412 Y8.27423
G1 X8.18482 Y8.27694
G1 X8.18547 Y8.27966
G1 X8.18608 Y8.28240
G1 X8.18664 Y8.28514
G1 X8.18715 Y8.28789
G1 X8.18761 Y8.29065
G1 X8.18802 Y8.29342
G1 X8.18839 Y8.29620
G1 X8.18871 Y8.29898
G1 X8.18897 Y8.30177
G1 X8.18919 Y8.30456
G1 X8.18936 Y8.30736
G1 X8.18949 Y8.31015
G1 X8.18956 Y8.31295
G1 X8.18958 Y8.31575
G1 X8.18958 Y8.31575
G1 X8.18956 Y8.31855
G1 X8.18949 Y8.32135
G1 X8.18936 Y8.32415
G1 X8.18919 Y8.32694
G1 X8.18897 Y8.32974
G1 X8.18871 Y8.33252
G1 X8.18839 Y8.33531
G1 X8.18802 Y8.33808
G1 X8.18761 Y8.34085
G1 X8.18715 Y8.34361
G1 X8.18664 Y8.34637
G1 X8.18608 Y8.34911
G1 X8.18547 Y8.35184
G1 X8.18482 Y8.35457
G1 X8.18412 Y8.35728
G1 X8.18337 Y8.35998
G1 X8.18257 Y8.36266
G1 X8.18173 Y8.36533
G1 X8.18084 Y8.36799
G1 X8.17991 Y8.37063
G1 X8.17893 Y8.37325
G1 X8.17790 Y8.37585
G1 X8.17683 Y8.37844
G1 X8.17571 Y8.38101
G1 X8.17455 Y8.38356
G1 X8.17335 Y8.38609
G1 X8.17210 Y8.38859
G1 X8.17080 Y8.39107
G1 X8.16947 Y8.39354
G1 X8.16809 Y8.39597
G1 X8.16667 Y8.39839
G1 X8.16521 Y8.40077
G1 X8.16370 Y8.40313
G1 X8.16216 Y8.40547
G1 X8.16057 Y8.40778
G1 X8.15894 Y8.41006
G1 X8.15728 Y8.41231
G1 X8.15557 Y8.41453
G1 X8.15383 Y8.41672
G1 X8.15205 Y8.41888
G1 X8.15023 Y8.42101
G1 X8.14837 Y8.42311
G1 X8.14648 Y8.42517
G1 X8.14456 Y8.42720
G1 X8.14259 Y8.42920
G1 X8.14060 Y8.43116
G1 X8.13856 Y8.43309
G1 X8.13650 Y8.43498
G1 X8.13440 Y8.43684
G1 X8.13227 Y8.43866
G1 X8.13011 Y8.44044
G1 X8.12792 Y8.44218
G1 X8.12570 Y8.44389
G1 X8.12345 Y8.44555
G1 X8.12117 Y8.44718
G1 X8.11886 Y8.44876
G1 X8.11653 Y8.45031
G1 X8.11417 Y8.45181
G1 X8.11178 Y8.45328
G1 X8.10937 Y8.45470
G1 X8.10693 Y8.45608
G1 X8.10447 Y8.45741
G1 X8.10198 Y8.45871
G1 X8.09948 Y8.45995
G1 X8.09695 Y8.46116
G1 X8.09440 Y8.46232
G1 X8.09183 Y8.46344
G1 X8.08925 Y8.46451
G1 X8.08664 Y8.46554
G1 X8.08402 Y8.46652
G1 X8.08138 Y8.46745
G1 X8.07872 Y8.46834
G1 X8.07605 Y8.46918
G1 X8.07337 Y8.46998
G1 X8.07067 Y8.47073
G1 X8.06796 Y8.47143
G1 X8.06524 Y8.47208
G1 X8.06250 Y8.47269
G1 X8.05976 Y8.47324
G1 X8.05701 Y8.47375
G1 X8.05424 Y8.47422
G1 X8.05147 Y8.47463
G1 X8.04870 Y8.47500
G1 X8.04592 Y8.47531
G1 X8.04313 Y8.47558
G1 X8.04034 Y8.47580
G1 X8.03754 Y8.47597
G1 X8.03474 Y8.47609
G1 X8.03195 Y8.47617
G1 X8.02915 Y8.47619
G1 X8.02915 Y8.47619
G1 X8.02915 Y8.47619
G1 X8.02635 Y8.47617
G1 X8.02355 Y8.47609
G1 X8.02075 Y8.47597
G1 X8.01795 Y8.47580
G1 X8.01516 Y8.47558
G1 X8.01238 Y8.47531
G1 X8.00959 Y8.47500
G1 X8.00682 Y8.47463
G1 X8.00405 Y8.47422
G1 X8.00129 Y8.47375
G1 X7.99853 Y8.47324
G1 X7.99579 Y8.47269
G1 X7.99305 Y8.47208
G1 X7.99033 Y8.47143
G1 X7.98762 Y8.47073
G1 X7.98492 Y8.46998
G1 X7.98224 Y8.46918
G1 X7.97957 Y8.46834
G1 X7.97691 Y8.46745
G1 X7.97427 Y8.46652
G1 X7.97165 Y8.46554
G1 X7.96904 Y8.46451
G1 X7.96646 Y8.46344
G1 X7.96389 Y8.46232
G1 X7.96134 Y8.46116
G1 X7.95881 Y8.45995
G1 X7.95631 Y8.45871
G1 X7.95382 Y8.45741
G1 X7.95136 Y8.45608
G1 X7.94893 Y8.45470
G1 X7.94651 Y8.45328
G1 X7.94413 Y8.45181
G1 X7.94176 Y8.45031
G1 X7.93943 Y8.44876
G1 X7.93712 Y8.44718
G1 X7.93484 Y8.44555
G1 X7.93259 Y8.44389
G1 X7.93037 Y8.44218
G1 X7.92818 Y8.44044
G1 X7.92602 Y8.43866
G1 X7.92389 Y8.43684
G1 X7.92179 Y8.43498
G1 X7.91973 Y8.43309
G1 X7.91770 Y8.43116
G1 X7.91570 Y8.42920
G1 X7.91374 Y8.42720
G1 X7.91181 Y8.42517
G1 X7.90992 Y8.42311
G1 X7.90806 Y8.42101
G1 X7.90624 Y8.41888
G1 X7.90446 Y8.41672
G1 X7.90272 Y8.41453
G1 X7.90101 Y8.41231
G1 X7.89935 Y8.41006
G1 X7.89772 Y8.40778
G1 X7.89614 Y8.40547
G1 X7.89459 Y8.40313
G1 X7.89309 Y8.40077
G1 X7.89162 Y8.39839
G1 X7.89020 Y8.39597
G1 X7.88882 Y8.39354
G1 X7.88749 Y8.39107
G1 X7.88619 Y8.38859
G1 X7.88494 Y8.38609
G1 X7.88374 Y8.38356
G1 X7.88258 Y8.38101
G1 X7.88146 Y8.37844
G1 X7.88039 Y8.37585
G1 X7.87936 Y8.37325
G1 X7.87838 Y8.37063
G1 X7.87745 Y8.36799
G1 X7.87656 Y8.36533
G1 X7.87572 Y8.36266
G1 X7.87492 Y8.35998
G1 X7.87417 Y8.35728
G1 X7.87347 Y8.35457
G1 X7.87282 Y8.35184
G1 X7.87221 Y8.34911
G1 X7.87165 Y8.34637
G1 X7.87114 Y8.34361
G1 X7.87068 Y8.34085
G1 X7.87027 Y8.33808
G1 X7.86990 Y8.33531
G1 X7.86959 Y8.33252
G1 X7.86932 Y8.32974
G1 X7.86910 Y8.32694
G1 X7.86893 Y8.32415
G1 X7.86880 Y8.32135
G1 X7.86873 Y8.31855
G1 X7.86871 Y8.31575
G1 X7.86871 Y8.31575
G1 X7.86873 Y8.31295
G1 X7.86880 Y8.31015
G1 X7.86893 Y8.30736
G1 X7.86910 Y8.30456
G1 X7.86932 Y8.30177
G1 X7.86959 Y8.29898
G1 X7.86990 Y8.29620
G1 X7.87027 Y8.29342
G1 X7.87068 Y8.29066
G1 X7.87114 Y8.28789
G1 X7.87165 Y8.28514
G1 X7.87221 Y8.28240
G1 X7.87282 Y8.27966
G1 X7.87347 Y8.27694
G1 X7.87417 Y8.27423
G1 X7.87492 Y8.27153
G1 X7.87572 Y8.26885
G1 X7.87656 Y8.26617
G1 X7.87745 Y8.26352
G1 X7.87838 Y8.26088
G1 X7.87936 Y8.25826
G1 X7.88039 Y8.25565
G1 X7.88146 Y8.25306
G1 X7.88258 Y8.25050
G1 X7.88374 Y8.24795
G1 X7.88494 Y8.24542
G1 X7.88619 Y8.24292
G1 X7.88749 Y8.24043
G1 X7.88882 Y8.23797
G1 X7.89020 Y8.23553
G1 X7.89162 Y8.23312
G1 X7.89309 Y8.23073
G1 X7.89459 Y8.22837
G1 X7.89614 Y8.22604
G1 X7.89772 Y8.22373
G1 X7.89935 Y8.22145
G1 X7.90101 Y8.21920
G1 X7.90272 Y8.21698
G1 X7.90446 Y8.21479
G1 X7.90624 Y8.21263
G1 X7.90806 Y8.21050
G1 X7.90992 Y8.20840
G1 X7.91181 Y8.20633
G1 X7.91374 Y8.20430
G1 X7.91570 Y8.20231
G1 X7.91770 Y8.20034
G1 X7.91973 Y8.19842
G1 X7.92179 Y8.19652
G1 X7.92389 Y8.19467
G1 X7.92602 Y8.19285
G1 X7.92818 Y8.19107
G1 X7.93037 Y8.18933
G1 X7.93259 Y8.18762
G1 X7.93484 Y8.18596
G1 X7.93712 Y8.18433
G1 X7.93943 Y8.18274
G1 X7.94176 Y8.18120
G1 X7.94413 Y8.17969
G1 X7.94651 Y8.17823
G1 X7.94893 Y8.17681
G1 X7.95136 Y8.17543
G1 X7.95382 Y8.17409
G1 X7.95631 Y8.17280
G1 X7.95881 Y8.17155
G1 X7.96134 Y8.17035
G1 X7.96389 Y8.16918
G1 X7.96646 Y8.16807
G1 X7.96904 Y8.16700
G1 X7.97165 Y8.16597
G1 X7.97427 Y8.16499
G1 X7.97691 Y8.16406
G1 X7.97957 Y8.16317
G1 X7.98224 Y8.16232
G1 X7.98492 Y8.16153
G1 X7.98762 Y8.16078
G1 X7.99033 Y8.16008
G1 X7.99305 Y8.15943
G1 X7.99579 Y8.15882
G1 X7.99853 Y8.15826
G1 X8.00129 Y8.15775
G1 X8.00405 Y8.15729
G1 X8.00682 Y8.15688
G1 X8.00959 Y8.15651
G1 X8.01237 Y8.15619
G1 X8.01516 Y8.15592
G1 X8.01795 Y8.15571
G1 X8.02075 Y8.15553
G1 X8.02355 Y8.15541
G1 X8.02635 Y8.15534
G1 X8.02915 Y8.15531
G1 X8.02915 Y8.15531
M5

G0 X0.31261 Y10.34429
M3 S1
G1 X0.31261 Y10.34429 M62 P0
G1 X0.31541 Y10.34431
G1 X0.31821 Y10.34439
G1 X0.32101 Y10.34451
G1 X0.32380 Y10.34468
G1 X0.32659 Y10.34490
G1 X0.32938 Y10.34517
G1 X0.33216 Y10.34549
G1 X0.33494 Y10.34585
G1 X0.33771 Y10.34627
G1 X0.34047 Y10.34673
G1 X0.34322 Y10.34724
G1 X0.34597 Y10.34780
G1 X0.34870 Y10.34840
G1 X0.35142 Y10.34906
G1 X0.35414 Y10.34976
G1 X0.35683 Y10.35051
G1 X0.35952 Y10.35130
G1 X0.36219 Y10.35214
G1 X0.36484 Y10.35303
G1 X0.36748 Y10.35397
G1 X0.37011 Y10.35495
G1 X0.37271 Y10.35597
G1 X0.37530 Y10.35704
G1 X0.37787 Y10.35816
G1 X0.38041 Y10.35932
G1 X0.38294 Y10.36053
G1 X0.38545 Y10.36178
G1 X0.38793 Y10.36307
G1 X0.39039 Y10.36441
G1 X0.39283 Y10.36579
G1 X0.39524 Y10.36721
G1 X0.39763 Y10.36867
G1 X0.39999 Y10.37017
G1 X0.40233 Y10.37172
G1 X0.40463 Y10.37331
G1 X0.40691 Y10.37493
G1 X0.40916 Y10.37660
G1 X0.41139 Y10.37830
G1 X0.41358 Y10.38004
G1 X0.41574 Y10.38183
G1 X0.41787 Y10.38364
G1 X0.41996 Y10.38550
G1 X0.42203 Y10.38739
G1 X0.42406 Y10.38932
G1 X0.42606 Y10.39128
G1 X0.42802 Y10.39328
G1 X0.42995 Y10.39531
G1 X0.43184 Y10.39737
G1 X0.43370 Y10.39947
G1 X0.43551 Y10.40160
G1 X0.43729 Y10.40376
G1 X0.43904 Y10.40595
G1 X0.44074 Y10.40817
G1 X0.44241 Y10.41043
G1 X0.44403 Y10.41271
G1 X0.44562 Y10.41501
G1 X0.44717 Y10.41735
G1 X0.44867 Y10.41971
G1 X0.45013 Y10.42210
G1 X0.45155 Y10.42451
G1 X0.45293 Y10.42695
G1 X0.45427 Y10.42941
G1 X0.45556 Y10.43189
G1 X0.45681 Y10.43440
G1 X0.45802 Y10.43693
G1 X0.45918 Y10.43947
G1 X0.46030 Y10.44204
G1 X0.46137 Y10.44463
G1 X0.46239 Y10.44723
G1 X0.46337 Y10.44986
G1 X0.46431 Y10.45250
G1 X0.46520 Y10.45515
G1 X0.46604 Y10.45782
G1 X0.46683 Y10.46051
G1 X0.46758 Y10.46320
G1 X0.46828 Y10.46592
G1 X0.46894 Y10.46864
G1 X0.46954 Y10.47137
G1 X0.47010 Y10.47412
G1 X0.47061 Y10.47687
G1 X0.47107 Y10.47963
G1 X0.47149 Y10.48240
G1 X0.47185 Y10.48518
G1 X0.47217 Y10.48796
G1 X0.47244 Y10.49075
G1 X0.47266 Y10.49354
G1 X0.47283 Y10.49633
G1 X0.47295 Y10.49913
G1 X0.47302 Y10.50193
G1 X0.47305 Y10.50473
G1 X0.47305 Y10.50473
G1 X0.47302 Y10.50753
G1 X0.47295 Y10.51033
G1 X0.47283 Y10.51313
G1 X0.47266 Y10.51592
G1 X0.47244 Y10.51871
G1 X0.47217 Y10.52150
G1 X0.47185 Y10.52428
G1 X0.47149 Y10.52706
G1 X0.47107 Y10.52983
G1 X0.47061 Y10.53259
G1 X0.47010 Y10.53534
G1 X0.46954 Y10.53809
G1 X0.46894 Y10.54082
G1 X0.46828 Y10.54354
G1 X0.46758 Y10.54625
G1 X0.46683 Y10.54895
G1 X0.46604 Y10.55164
G1 X0.46520 Y10.55431
G1 X0.46431 Y10.55696
G1 X0.46337 Y10.55960
G1 X0.46239 Y10.56223
G1 X0.46137 Y10.56483
G1 X0.46030 Y10.56742
G1 X0.45918 Y10.56999
G1 X0.45802 Y10.57253
G1 X0.45681 Y10.57506
G1 X0.45556 Y10.57757
G1 X0.45427 Y10.58005
G1 X0.45293 Y10.58251
G1 X0.45155 Y10.58495
G1 X0.45013 Y10.58736
G1 X0.44867 Y10.58975
G1 X0.44717 Y10.59211
G1 X0.44562 Y10.59445
G1 X0.44403 Y10.59675
G1 X0.44241 Y10.59903
G1 X0.44074 Y10.60128
G1 X0.43904 Y10.60351
G1 X0.43729 Y10.60570
G1 X0.43551 Y10.60786
G1 X0.43370 Y10.60999
G1 X0.43184 Y10.61208
G1 X0.42995 Y10.61415
G1 X0.42802 Y10.61618
G1 X0.42606 Y10.61818
G1 X0.42406 Y10.62014
G1 X0.42203 Y10.62207
G1 X0.41997 Y10.62396
G1 X0.41787 Y10.62581
G1 X0.41574 Y10.62763
G1 X0.41358 Y10.62941
G1 X0.41139 Y10.63116
G1 X0.40916 Y10.63286
G1 X0.40691 Y10.63453
G1 X0.40463 Y10.63615
G1 X0.40233 Y10.63774
G1 X0.39999 Y10.63928
G1 X0.39763 Y10.64079
G1 X0.39524 Y10.64225
G1 X0.39283 Y10.64367
G1 X0.39039 Y10.64505
G1 X0.38793 Y10.64639
G1 X0.38545 Y10.64768
G1 X0.38294 Y10.64893
G1 X0.38041 Y10.65014
G1 X0.37787 Y10.65130
G1 X0.37530 Y10.65241
G1 X0.37271 Y10.65349
G1 X0.37011 Y10.65451
G1 X0.36748 Y10.65549
G1 X0.36484 Y10.65643
G1 X0.36219 Y10.65732
G1 X0.35952 Y10.65816
G1 X0.35683 Y10.65895
G1 X0.35414 Y10.65970
G1 X0.35142 Y10.66040
G1 X0.34870 Y10.66106
G1 X0.34597 Y10.66166
G1 X0.34322 Y10.66222
G1 X0.34047 Y10.66273
G1 X0.33771 Y10.66319
G1 X0.33494 Y10.66361
G1 X0.33216 Y10.66397
G1 X0.32938 Y10.66429
G1 X0.32659 Y10.66456
G1 X0.32380 Y10.66478
G1 X0.32101 Y10.66495
G1 X0.31821 Y10.66507
G1 X0.31541 Y10.66514
G1 X0.31261 Y10.66517
G1 X0.31261 Y10.66517
G1 X0.31261 Y10.66517
G1 X0.30981 Y10.66514
G1 X0.30701 Y10.66507
G1 X0.30421 Y10.66495
G1 X0.30142 Y10.66478
G1 X0.29863 Y10.66456
G1 X0.29584 Y10.66429
G1 X0.29306 Y10.66397
G1 X0.29028 Y10.66361
G1 X0.28751 Y10.66319
G1 X0.28475 Y10.66273
G1 X0.28200 Y10.66222
G1 X0.27925 Y10.66166
G1 X0.27652 Y10.66106
G1 X0.27380 Y10.66040
G1 X0.27109 Y10.65970
G1 X0.26839 Y10.65895
G1 X0.26570 Y10.65816
G1 X0.26303 Y10.65732
G1 X0.26038 Y10.65643
G1 X0.25774 Y10.65549
G1 X0.25511 Y10.65451
G1 X0.25251 Y10.65349
G1 X0.24992 Y10.65241
G1 X0.24735 Y10.65130
G1 X0.24481 Y10.65014
G1 X0.24228 Y10.64893
G1 X0.23977 Y10.64768
G1 X0.23729 Y10.64639
G1 X0.23483 Y10.64505
G1 X0.23239 Y10.64367
G1 X0.22998 Y10.64225
G1 X0.22759 Y10.64079
G1 X0.22523 Y10.63928
G1 X0.22289 Y10.63774
G1 X0.22059 Y10.63615
G1 X0.21831 Y10.63453
G1 X0.21606 Y10.63286
G1 X0.21383 Y10.63116
G1 X0.21164 Y10.62941
G1 X0.20948 Y10.62763
G1 X0.20735 Y10.62581
G1 X0.20526 Y10.62396
G1 X0.20319 Y10.62207
G1 X0.20116 Y10.62014
G1 X0.19916 Y10.61818
G1 X0.19720 Y10.61618
G1 X0.19527 Y10.61415
G1 X0.19338 Y10.61208
G1 X0.19153 Y10.60999
G1 X0.18971 Y10.60786
G1 X0.18793 Y10.60570
G1 X0.18618 Y10.60351
G1 X0.18448 Y10.60128
G1 X0.18281 Y10.59903
G1 X0.18119 Y10.59675
G1 X0.17960 Y10.59445
G1 X0.17805 Y10.59211
G1 X0.17655 Y10.58975
G1 X0.17509 Y10.58736
G1 X0.17367 Y10.58495
G1 X0.17229 Y10.58251
G1 X0.17095 Y10.58005
G1 X0.16966 Y10.57757
G1 X0.16841 Y10.57506
G1 X0.16720 Y10.57253
G1 X0.16604 Y10.56999
G1 X0.16493 Y10.56742
G1 X0.16385 Y10.56483
G1 X0.16283 Y10.56223
G1 X0.16185 Y10.55960
G1 X0.16091 Y10.55696
G1 X0.16002 Y10.55431
G1 X0.15918 Y10.55164
G1 X0.15839 Y10.54895
G1 X0.15764 Y10.54625
G1 X0.15694 Y10.54354
G1 X0.15628 Y10.54082
G1 X0.15568 Y10.53809
G1 X0.15512 Y10.53534
G1 X0.15461 Y10.53259
G1 X0.15415 Y10.52983
G1 X0.15373 Y10.52706
G1 X0.15337 Y10.52428
G1 X0.15305 Y10.52150
G1 X0.15278 Y10.51871
G1 X0.15256 Y10.51592
G1 X0.15239 Y10.51313
G1 X0.15227 Y10.51033
G1 X0.15220 Y10.50753
G1 X0.15217 Y10.50473
G1 X0.15217 Y10.50473
G1 X0.15217 Y10.50473
G1 X0.15220 Y10.50193
G1 X0.15227 Y10.49913
G1 X0.15239 Y10.49633
G1 X0.15256 Y10.49354
G1 X0.15278 Y10.49075
G1 X0.15305 Y10.48796
G1 X0.15337 Y10.48518
G1 X0.15373 Y10.48240
G1 X0.15415 Y10.47963
G1 X0.15461 Y10.47687
G1 X0.15512 Y10.47412
G1 X0.15568 Y10.47137
G1 X0.15628 Y10.46864
G1 X0.15694 Y10.46592
G1 X0.15764 Y10.46320
G1 X0.15839 Y10.46051
G1 X0.15918 Y10.45782
G1 X0.16002 Y10.45515
G1 X0.16091 Y10.45250
G1 X0.16185 Y10.44986
G1 X0.16283 Y10.44723
G1 X0.16385 Y10.44463
G1 X0.16493 Y10.44204
G1 X0.16604 Y10.43947
G1 X0.16720 Y10.43693
G1 X0.16841 Y10.43440
G1 X0.16966 Y10.43189
G1 X0.17095 Y10.42941
G1 X0.17229 Y10.42695
G1 X0.17367 Y10.42451
G1 X0.17509 Y10.42210
G1 X0.17655 Y10.41971
G1 X0.17805 Y10.41735
G1 X0.17960 Y10.41501
G1 X0.18119 Y10.41271
G1 X0.18281 Y10.41043
G1 X0.18448 Y10.40817
G1 X0.18618 Y10.40595
G1 X0.18793 Y10.40376
G1 X0.18971 Y10.40160
G1 X0.19153 Y10.39947
G1 X0.19338 Y10.39737
G1 X0.19527 Y10.39531
G1 X0.19720 Y10.39328
G1 X0.19916 Y10.39128
G1 X0.20116 Y10.38932
G1 X0.20319 Y10.38739
G1 X0.20526 Y10.38550
G1 X0.20735 Y10.38364
G1 X0.20948 Y10.38183
G1 X0.21164 Y10.38005
G1 X0.21383 Y10.37830
G1 X0.21606 Y10.37660
G1 X0.21831 Y10.37493
G1 X0.22059 Y10.37331
G1 X0.22289 Y10.37172
G1 X0.22523 Y10.37017
G1 X0.22759 Y10.36867
G1 X0.22998 Y10.36721
G1 X0.23239 Y10.36579
G1 X0.23483 Y10.36441
G1 X0.23729 Y10.36307
G1 X0.23977 Y10.36178
G1 X0.24228 Y10.36053
G1 X0.24481 Y10.35932
G1 X0.24735 Y10.35816
G1 X0.24992 Y10.35704
G1 X0.25251 Y10.35597
G1 X0.25511 Y10.35495
G1 X0.25774 Y10.35397
G1 X0.26038 Y10.35303
G1 X0.26303 Y10.35214
G1 X0.26570 Y10.35130
G1 X0.26839 Y10.35051
G1 X0.27109 Y10.34976
G1 X0.27380 Y10.34906
G1 X0.27652 Y10.34840
G1 X0.27925 Y10.34780
G1 X0.28200 Y10.34724
G1 X0.28475 Y10.34673
G1 X0.28751 Y10.34627
G1 X0.29028 Y10.34585
G1 X0.29306 Y10.34549
G1 X0.29584 Y10.34517
G1 X0.29863 Y10.34490
G1 X0.30142 Y10.34468
G1 X0.30421 Y10.34451
G1 X0.30701 Y10.34439
G1 X0.30981 Y10.34431
G1 X0.31261 Y10.34429
G1 X0.31261 Y10.34429
G1 X0.31261 Y10.34429
M5
>>>>>>> 767955fbc9bd3916ad2262e3c51172651b33fb1f

G0 X0.31261 Y5.96634
M3 S1
G1 X0.31261 Y5.96634 M62 P0
G1 X0.31541 Y5.96636
G1 X0.31821 Y5.96644
G1 X0.32101 Y5.96656
G1 X0.32380 Y5.96673
G1 X0.32659 Y5.96695
G1 X0.32938 Y5.96722
G1 X0.33216 Y5.96753
G1 X0.33494 Y5.96790
G1 X0.33771 Y5.96831
G1 X0.34047 Y5.96878
G1 X0.34322 Y5.96929
G1 X0.34597 Y5.96984
G1 X0.34870 Y5.97045
G1 X0.35142 Y5.97110
G1 X0.35414 Y5.97180
G1 X0.35683 Y5.97255
G1 X0.35952 Y5.97335
G1 X0.36219 Y5.97419
G1 X0.36484 Y5.97508
G1 X0.36748 Y5.97601
G1 X0.37011 Y5.97699
G1 X0.37271 Y5.97802
G1 X0.37530 Y5.97909
G1 X0.37787 Y5.98021
G1 X0.38041 Y5.98137
G1 X0.38294 Y5.98257
G1 X0.38545 Y5.98382
G1 X0.38793 Y5.98512
G1 X0.39039 Y5.98645
G1 X0.39283 Y5.98783
G1 X0.39524 Y5.98925
G1 X0.39763 Y5.99072
G1 X0.39999 Y5.99222
G1 X0.40233 Y5.99377
G1 X0.40463 Y5.99535
G1 X0.40691 Y5.99698
G1 X0.40916 Y5.99864
G1 X0.41139 Y6.00035
G1 X0.41358 Y6.00209
G1 X0.41574 Y6.00387
G1 X0.41787 Y6.00569
G1 X0.41996 Y6.00755
G1 X0.42203 Y6.00944
G1 X0.42406 Y6.01137
G1 X0.42606 Y6.01333
G1 X0.42802 Y6.01533
G1 X0.42995 Y6.01736
G1 X0.43184 Y6.01942
G1 X0.43370 Y6.02152
G1 X0.43551 Y6.02365
G1 X0.43729 Y6.02581
G1 X0.43904 Y6.02800
G1 X0.44074 Y6.03022
G1 X0.44241 Y6.03247
G1 X0.44403 Y6.03475
G1 X0.44562 Y6.03706
G1 X0.44717 Y6.03940
G1 X0.44867 Y6.04176
G1 X0.45013 Y6.04414
G1 X0.45155 Y6.04656
G1 X0.45293 Y6.04899
G1 X0.45427 Y6.05145
G1 X0.45556 Y6.05394
G1 X0.45681 Y6.05644
G1 X0.45802 Y6.05897
G1 X0.45918 Y6.06152
G1 X0.46030 Y6.06409
G1 X0.46137 Y6.06668
G1 X0.46239 Y6.06928
G1 X0.46337 Y6.07190
G1 X0.46431 Y6.07454
G1 X0.46520 Y6.07720
G1 X0.46604 Y6.07987
G1 X0.46683 Y6.08255
G1 X0.46758 Y6.08525
G1 X0.46828 Y6.08796
G1 X0.46894 Y6.09069
G1 X0.46954 Y6.09342
G1 X0.47010 Y6.09616
G1 X0.47061 Y6.09892
G1 X0.47107 Y6.10168
G1 X0.47149 Y6.10445
G1 X0.47185 Y6.10722
G1 X0.47217 Y6.11001
G1 X0.47244 Y6.11279
G1 X0.47266 Y6.11558
G1 X0.47283 Y6.11838
G1 X0.47295 Y6.12118
G1 X0.47302 Y6.12398
G1 X0.47305 Y6.12678
G1 X0.47305 Y6.12678
G1 X0.47302 Y6.12958
G1 X0.47295 Y6.13238
G1 X0.47283 Y6.13517
G1 X0.47266 Y6.13797
G1 X0.47244 Y6.14076
G1 X0.47217 Y6.14355
G1 X0.47185 Y6.14633
G1 X0.47149 Y6.14911
G1 X0.47107 Y6.15187
G1 X0.47061 Y6.15464
G1 X0.47010 Y6.15739
G1 X0.46954 Y6.16013
G1 X0.46894 Y6.16287
G1 X0.46828 Y6.16559
G1 X0.46758 Y6.16830
G1 X0.46683 Y6.17100
G1 X0.46604 Y6.17368
G1 X0.46520 Y6.17635
G1 X0.46431 Y6.17901
G1 X0.46337 Y6.18165
G1 X0.46239 Y6.18427
G1 X0.46137 Y6.18688
G1 X0.46030 Y6.18947
G1 X0.45918 Y6.19203
G1 X0.45802 Y6.19458
G1 X0.45681 Y6.19711
G1 X0.45556 Y6.19961
G1 X0.45427 Y6.20210
G1 X0.45293 Y6.20456
G1 X0.45155 Y6.20700
G1 X0.45013 Y6.20941
G1 X0.44867 Y6.21180
G1 X0.44717 Y6.21416
G1 X0.44562 Y6.21649
G1 X0.44403 Y6.21880
G1 X0.44241 Y6.22108
G1 X0.44074 Y6.22333
G1 X0.43904 Y6.22555
G1 X0.43729 Y6.22774
G1 X0.43551 Y6.22990
G1 X0.43370 Y6.23203
G1 X0.43184 Y6.23413
G1 X0.42995 Y6.23620
G1 X0.42802 Y6.23823
G1 X0.42606 Y6.24022
G1 X0.42406 Y6.24219
G1 X0.42203 Y6.24411
G1 X0.41997 Y6.24601
G1 X0.41787 Y6.24786
G1 X0.41574 Y6.24968
G1 X0.41358 Y6.25146
G1 X0.41139 Y6.25320
G1 X0.40916 Y6.25491
G1 X0.40691 Y6.25657
G1 X0.40463 Y6.25820
G1 X0.40233 Y6.25979
G1 X0.39999 Y6.26133
G1 X0.39763 Y6.26284
G1 X0.39524 Y6.26430
G1 X0.39283 Y6.26572
G1 X0.39039 Y6.26710
G1 X0.38793 Y6.26844
G1 X0.38545 Y6.26973
G1 X0.38294 Y6.27098
G1 X0.38041 Y6.27218
G1 X0.37787 Y6.27334
G1 X0.37530 Y6.27446
G1 X0.37271 Y6.27553
G1 X0.37011 Y6.27656
G1 X0.36748 Y6.27754
G1 X0.36484 Y6.27847
G1 X0.36219 Y6.27936
G1 X0.35952 Y6.28021
G1 X0.35683 Y6.28100
G1 X0.35414 Y6.28175
G1 X0.35142 Y6.28245
G1 X0.34870 Y6.28310
G1 X0.34597 Y6.28371
G1 X0.34322 Y6.28427
G1 X0.34047 Y6.28478
G1 X0.33771 Y6.28524
G1 X0.33494 Y6.28565
G1 X0.33216 Y6.28602
G1 X0.32938 Y6.28634
G1 X0.32659 Y6.28660
G1 X0.32380 Y6.28682
G1 X0.32101 Y6.28700
G1 X0.31821 Y6.28712
G1 X0.31541 Y6.28719
G1 X0.31261 Y6.28722
G1 X0.31261 Y6.28722
G1 X0.31261 Y6.28722
G1 X0.30981 Y6.28719
G1 X0.30701 Y6.28712
G1 X0.30421 Y6.28700
G1 X0.30142 Y6.28682
G1 X0.29863 Y6.28661
G1 X0.29584 Y6.28634
G1 X0.29306 Y6.28602
G1 X0.29028 Y6.28565
G1 X0.28751 Y6.28524
G1 X0.28475 Y6.28478
G1 X0.28200 Y6.28427
G1 X0.27925 Y6.28371
G1 X0.27652 Y6.28310
G1 X0.27380 Y6.28245
G1 X0.27109 Y6.28175
G1 X0.26839 Y6.28100
G1 X0.26570 Y6.28021
G1 X0.26303 Y6.27936
G1 X0.26038 Y6.27847
G1 X0.25774 Y6.27754
G1 X0.25511 Y6.27656
G1 X0.25251 Y6.27553
G1 X0.24992 Y6.27446
G1 X0.24735 Y6.27334
G1 X0.24481 Y6.27218
G1 X0.24228 Y6.27098
G1 X0.23977 Y6.26973
G1 X0.23729 Y6.26844
G1 X0.23483 Y6.26710
G1 X0.23239 Y6.26572
G1 X0.22998 Y6.26430
G1 X0.22759 Y6.26284
G1 X0.22523 Y6.26133
G1 X0.22289 Y6.25979
G1 X0.22059 Y6.25820
G1 X0.21831 Y6.25657
G1 X0.21606 Y6.25491
G1 X0.21383 Y6.25320
G1 X0.21164 Y6.25146
G1 X0.20948 Y6.24968
G1 X0.20735 Y6.24786
G1 X0.20526 Y6.24601
G1 X0.20319 Y6.24411
G1 X0.20116 Y6.24219
G1 X0.19916 Y6.24022
G1 X0.19720 Y6.23823
G1 X0.19527 Y6.23620
G1 X0.19338 Y6.23413
G1 X0.19153 Y6.23203
G1 X0.18971 Y6.22990
G1 X0.18793 Y6.22774
G1 X0.18618 Y6.22555
G1 X0.18448 Y6.22333
G1 X0.18281 Y6.22108
G1 X0.18119 Y6.21880
G1 X0.17960 Y6.21649
G1 X0.17805 Y6.21416
G1 X0.17655 Y6.21180
G1 X0.17509 Y6.20941
G1 X0.17367 Y6.20700
G1 X0.17229 Y6.20456
G1 X0.17095 Y6.20210
G1 X0.16966 Y6.19961
G1 X0.16841 Y6.19711
G1 X0.16720 Y6.19458
G1 X0.16604 Y6.19203
G1 X0.16493 Y6.18947
G1 X0.16385 Y6.18688
G1 X0.16283 Y6.18427
G1 X0.16185 Y6.18165
G1 X0.16091 Y6.17901
G1 X0.16002 Y6.17635
G1 X0.15918 Y6.17368
G1 X0.15839 Y6.17100
G1 X0.15764 Y6.16830
G1 X0.15694 Y6.16559
G1 X0.15628 Y6.16287
G1 X0.15568 Y6.16013
G1 X0.15512 Y6.15739
G1 X0.15461 Y6.15464
G1 X0.15415 Y6.15187
G1 X0.15373 Y6.14911
G1 X0.15337 Y6.14633
G1 X0.15305 Y6.14355
G1 X0.15278 Y6.14076
G1 X0.15256 Y6.13797
G1 X0.15239 Y6.13517
G1 X0.15227 Y6.13238
G1 X0.15220 Y6.12958
G1 X0.15217 Y6.12678
G1 X0.15217 Y6.12678
G1 X0.15217 Y6.12678
G1 X0.15220 Y6.12398
G1 X0.15227 Y6.12118
G1 X0.15239 Y6.11838
G1 X0.15256 Y6.11558
G1 X0.15278 Y6.11279
G1 X0.15305 Y6.11001
G1 X0.15337 Y6.10722
G1 X0.15373 Y6.10445
G1 X0.15415 Y6.10168
G1 X0.15461 Y6.09892
G1 X0.15512 Y6.09616
G1 X0.15568 Y6.09342
G1 X0.15628 Y6.09069
G1 X0.15694 Y6.08796
G1 X0.15764 Y6.08525
G1 X0.15839 Y6.08255
G1 X0.15918 Y6.07987
G1 X0.16002 Y6.07720
G1 X0.16091 Y6.07454
G1 X0.16185 Y6.07190
G1 X0.16283 Y6.06928
G1 X0.16385 Y6.06668
G1 X0.16493 Y6.06409
G1 X0.16604 Y6.06152
G1 X0.16720 Y6.05897
G1 X0.16841 Y6.05644
G1 X0.16966 Y6.05394
G1 X0.17095 Y6.05146
G1 X0.17229 Y6.04899
G1 X0.17367 Y6.04656
G1 X0.17509 Y6.04414
G1 X0.17655 Y6.04176
G1 X0.17805 Y6.03940
G1 X0.17960 Y6.03706
G1 X0.18119 Y6.03475
G1 X0.18281 Y6.03247
G1 X0.18448 Y6.03022
G1 X0.18618 Y6.02800
G1 X0.18793 Y6.02581
G1 X0.18971 Y6.02365
G1 X0.19153 Y6.02152
G1 X0.19338 Y6.01942
G1 X0.19527 Y6.01736
G1 X0.19720 Y6.01533
G1 X0.19916 Y6.01333
G1 X0.20116 Y6.01137
G1 X0.20319 Y6.00944
G1 X0.20526 Y6.00755
G1 X0.20735 Y6.00569
G1 X0.20948 Y6.00387
G1 X0.21164 Y6.00209
G1 X0.21383 Y6.00035
G1 X0.21606 Y5.99864
G1 X0.21831 Y5.99698
G1 X0.22059 Y5.99535
G1 X0.22289 Y5.99377
G1 X0.22523 Y5.99222
G1 X0.22759 Y5.99072
G1 X0.22998 Y5.98925
G1 X0.23239 Y5.98783
G1 X0.23483 Y5.98645
G1 X0.23729 Y5.98512
G1 X0.23977 Y5.98382
G1 X0.24228 Y5.98257
G1 X0.24481 Y5.98137
G1 X0.24735 Y5.98021
G1 X0.24992 Y5.97909
G1 X0.25251 Y5.97802
G1 X0.25511 Y5.97699
G1 X0.25774 Y5.97601
G1 X0.26038 Y5.97508
G1 X0.26303 Y5.97419
G1 X0.26570 Y5.97335
G1 X0.26839 Y5.97255
G1 X0.27109 Y5.97180
G1 X0.27380 Y5.97110
G1 X0.27652 Y5.97045
G1 X0.27925 Y5.96984
G1 X0.28200 Y5.96929
G1 X0.28475 Y5.96878
G1 X0.28751 Y5.96831
G1 X0.29028 Y5.96790
G1 X0.29306 Y5.96753
G1 X0.29584 Y5.96722
G1 X0.29863 Y5.96695
G1 X0.30142 Y5.96673
G1 X0.30421 Y5.96656
G1 X0.30701 Y5.96644
G1 X0.30981 Y5.96636
G1 X0.31261 Y5.96634
G1 X0.31261 Y5.96634
G1 X0.31261 Y5.96634
M5

G0 X0.00000 Y11.65986
M3 S1
G1 X0.00000 Y4.97165 M62 P0
G1 X8.34176 Y4.97165
G1 X8.34176 Y11.65986
G1 X0.00000 Y11.65986
M5

M5
#300 = [#200*#100]
G1 W#300 (move the bed up according to the layer its on)
#100 = [#100+1] (add one to the layer counter)
o101 ENDWHILE
M30
