%
(Header)
(Generated by gcodetools from Inkscape.)
(Using default header. To add your own header create file "header" in the output dir.)
M3
(Header end.)
G20 (All units in inches)

(Start cutting path id: circle850)
(Change tool to Default tool)

G00 Z0.000000
G00 X204.000000 Y80.924836

G01 Z0.000000 F100.0(Penetrate)
G03 X205.559493 Y81.235038 Z0.000000 I0.000001 J4.075149 F400.000000
G03 X206.881567 Y82.118419 Z0.000000 I-1.559491 J3.764947
G03 X207.764948 Y83.440493 Z0.000000 I-2.881565 J2.881565
G03 X208.075150 Y84.999986 Z0.000000 I-3.764947 J1.559491
G03 X207.764948 Y86.559479 Z0.000000 I-4.075149 J0.000001
G03 X206.881567 Y87.881553 Z0.000000 I-3.764947 J-1.559491
G03 X205.559493 Y88.764934 Z0.000000 I-2.881565 J-2.881565
G03 X204.000000 Y89.075136 Z0.000000 I-1.559491 J-3.764947
G03 X202.440507 Y88.764934 Z0.000000 I-0.000001 J-4.075149
G03 X201.118433 Y87.881553 Z0.000000 I1.559491 J-3.764947
G03 X200.235052 Y86.559479 Z0.000000 I2.881565 J-2.881565
G03 X199.924850 Y84.999986 Z0.000000 I3.764947 J-1.559491
G03 X200.235052 Y83.440493 Z0.000000 I4.075149 J-0.000001
G03 X201.118433 Y82.118419 Z0.000000 I3.764947 J1.559491
G03 X202.440507 Y81.235038 Z0.000000 I2.881565 J2.881565
G03 X204.000000 Y80.924836 Z0.000000 I1.559491 J3.764947
G01 X204.000000 Y80.924836 Z0.000000
G00 Z0.000000

(End cutting path id: circle850)


(Start cutting path id: circle844)
(Change tool to Default tool)

G00 Z0.000000
G00 X7.999999 Y25.324826

G01 Z0.000000 F100.0(Penetrate)
G03 X9.559491 Y25.635028 Z0.000000 I0.000000 J4.075149 F400.000000
G03 X10.881565 Y26.518410 Z0.000000 I-1.559492 J3.764946
G03 X11.764946 Y27.840484 Z0.000000 I-2.881566 J2.881565
G03 X12.075148 Y29.399976 Z0.000000 I-3.764947 J1.559491
G03 X11.764946 Y30.959468 Z0.000000 I-4.075149 J0.000001
G03 X10.881565 Y32.281542 Z0.000000 I-3.764947 J-1.559491
G03 X9.559491 Y33.164924 Z0.000000 I-2.881566 J-2.881565
G03 X7.999999 Y33.475126 Z0.000000 I-1.559492 J-3.764946
G03 X6.440507 Y33.164923 Z0.000000 I0.000001 J-4.075149
G03 X5.118434 Y32.281542 Z0.000000 I1.559493 J-3.764946
G03 X4.235053 Y30.959468 Z0.000000 I2.881566 J-2.881564
G03 X3.924851 Y29.399976 Z0.000000 I3.764947 J-1.559491
G03 X4.235053 Y27.840484 Z0.000000 I4.075149 J-0.000001
G03 X5.118434 Y26.518410 Z0.000000 I3.764947 J1.559491
G03 X6.440507 Y25.635029 Z0.000000 I2.881566 J2.881564
G03 X7.999999 Y25.324826 Z0.000000 I1.559493 J3.764946
G01 X7.999999 Y25.324826 Z0.000000
G00 Z0.000000

(End cutting path id: circle844)


(Start cutting path id: circle842)
(Change tool to Default tool)

G00 Z0.000000
G00 X7.999999 Y136.524836

G01 Z0.000000 F100.0(Penetrate)
G03 X9.559491 Y136.835038 Z0.000000 I0.000000 J4.075149 F400.000000
G03 X10.881565 Y137.718420 Z0.000000 I-1.559492 J3.764946
G03 X11.764946 Y139.040494 Z0.000000 I-2.881566 J2.881565
G03 X12.075148 Y140.599986 Z0.000000 I-3.764947 J1.559491
G03 X11.764946 Y142.159478 Z0.000000 I-4.075149 J0.000001
G03 X10.881565 Y143.481552 Z0.000000 I-3.764947 J-1.559491
G03 X9.559491 Y144.364934 Z0.000000 I-2.881566 J-2.881565
G03 X7.999999 Y144.675136 Z0.000000 I-1.559492 J-3.764946
G03 X6.440507 Y144.364933 Z0.000000 I0.000001 J-4.075149
G03 X5.118434 Y143.481552 Z0.000000 I1.559493 J-3.764946
G03 X4.235053 Y142.159478 Z0.000000 I2.881566 J-2.881564
G03 X3.924851 Y140.599986 Z0.000000 I3.764947 J-1.559491
G03 X4.235053 Y139.040494 Z0.000000 I4.075149 J-0.000001
G03 X5.118434 Y137.718420 Z0.000000 I3.764947 J1.559491
G03 X6.440507 Y136.835039 Z0.000000 I2.881566 J2.881564
G03 X7.999999 Y136.524836 Z0.000000 I1.559493 J3.764946
G01 X7.999999 Y136.524836 Z0.000000
G00 Z0.000000

(End cutting path id: circle842)


(Start cutting path id: rect824)
(Change tool to Default tool)

G00 Z0.000000
G00 X0.059695 Y169.940288

G01 Z0.000000 F100.0(Penetrate)
G01 X0.059695 Y0.059676 Z0.000000 F400.000000
G01 X211.940310 Y0.059676 Z0.000000
G01 X211.940310 Y169.940288 Z0.000000
G01 X0.059695 Y169.940288 Z0.000000
G00 Z0.000000

(End cutting path id: rect824)


(Start cutting path id: rect822)
(Change tool to Default tool)

G00 Z0.000000
G00 X148.450150 Y148.623196

G01 Z0.000000 F100.0(Penetrate)
G01 X148.450150 Y21.099836 Z0.000000 F400.000000
G01 X63.249861 Y21.099836 Z0.000000
G01 X63.249861 Y148.623196 Z0.000000
G01 X94.680594 Y148.625196 Z0.000000
G02 X94.970275 Y150.852443 Z0.000000 I11.249713 J-0.330702
G02 X95.648447 Y152.864882 Z0.000000 I10.815409 J-2.524195
G02 X96.698987 Y154.716077 Z0.000000 I10.199821 J-4.564642
G02 X98.059421 Y156.315086 Z0.000000 I9.215315 J-6.462143
G02 X99.693083 Y157.633296 Z0.000000 I7.845369 J-8.051391
G02 X101.573333 Y158.635078 Z0.000000 I6.147203 J-9.272303
G02 X103.605304 Y159.257722 Z0.000000 I4.238941 J-10.206637
G02 X105.850000 Y159.484126 Z0.000000 I2.244696 J-11.014398
G02 X108.094864 Y159.257693 Z0.000000 I0.000000 J-11.241025
G02 X110.126890 Y158.634999 Z0.000000 I-2.207092 J-10.829262
G02 X112.007172 Y157.633136 Z0.000000 I-4.266835 J-10.273302
G02 X113.640596 Y156.314962 Z0.000000 I-6.210009 J-9.366296
G02 X115.000698 Y154.715962 Z0.000000 I-7.851494 J-8.056394
G02 X116.050559 Y152.865026 Z0.000000 I-9.141987 J-6.408597
G02 X116.727824 Y150.852900 Z0.000000 I-10.127391 J-4.528837
G02 X117.016220 Y148.626206 Z0.000000 I-10.946869 J-2.549837
G01 X148.450150 Y148.623196 Z0.000000
G00 Z0.000000

(End cutting path id: rect822)


(Footer)
M5
G00 X0.0000 Y0.0000
M2
(Using default footer. To add your own footer create file "footer" in the output dir.)
(end)
%