%
(Header)
(Generated by gcodetools from Inkscape.)
(Using default header. To add your own header create file "header" in the output dir.)
M3 S1 F500
(Header end.)
G21 (All units in mm)

(Start cutting path id: path938)
(Change tool to Default tool)

M63 P0
G00 X60.116530 Y0.059680

M62 P0(Penetrate)
G01 X81.378860 Y0.059680 Z0.000000 F400.000000
G01 X81.378860 Y169.940288 Z0.000000
G01 X60.116530 Y169.940288 Z0.000000
G01 X60.116530 Y0.059680 Z0.000000
M63 P0

(End cutting path id: path938)


(Start cutting path id: path936)
(Change tool to Default tool)

M63 P0
G00 X74.053370 Y80.649090

M62 P0(Penetrate)
G03 X75.718390 Y80.980280 Z0.000000 I0.000009 J4.350901 F400.000000
G03 X77.129927 Y81.923436 Z0.000000 I-1.665011 J4.019711
G03 X78.073086 Y83.334971 Z0.000000 I-3.076548 J3.076555
G03 X78.404280 Y84.999990 Z0.000000 I-4.019707 J1.665021
G03 X78.073086 Y86.665009 Z0.000000 I-4.350901 J-0.000001
G03 X77.129927 Y88.076544 Z0.000000 I-4.019707 J-1.665021
G03 X75.718390 Y89.019700 Z0.000000 I-3.076548 J-3.076555
G03 X74.053370 Y89.350890 Z0.000000 I-1.665011 J-4.019711
G03 X70.976819 Y88.076541 Z0.000000 I0.000001 J-4.350901
G03 X69.702470 Y84.999990 Z0.000000 I3.076552 J-3.076552
G03 X70.976819 Y81.923439 Z0.000000 I4.350901 J0.000001
G03 X74.053370 Y80.649090 Z0.000000 I3.076552 J3.076552
G01 X74.053370 Y80.649090 Z0.000000
M63 P0

(End cutting path id: path936)


(Start cutting path id: path932)
(Change tool to Default tool)

M63 P0
G00 X84.932090 Y0.059680

M62 P0(Penetrate)
G01 X106.194420 Y0.059680 Z0.000000 F400.000000
G01 X106.194420 Y169.940288 Z0.000000
G01 X84.932090 Y169.940288 Z0.000000
G01 X84.932090 Y0.059680 Z0.000000
M63 P0

(End cutting path id: path932)


(Start cutting path id: path930)
(Change tool to Default tool)

M63 P0
G00 X98.868930 Y80.649090

M62 P0(Penetrate)
G03 X100.533950 Y80.980280 Z0.000000 I0.000009 J4.350901 F400.000000
G03 X101.945487 Y81.923436 Z0.000000 I-1.665011 J4.019711
G03 X102.888646 Y83.334971 Z0.000000 I-3.076548 J3.076555
G03 X103.219840 Y84.999990 Z0.000000 I-4.019707 J1.665021
G03 X102.888646 Y86.665009 Z0.000000 I-4.350901 J-0.000001
G03 X101.945487 Y88.076544 Z0.000000 I-4.019707 J-1.665021
G03 X100.533950 Y89.019700 Z0.000000 I-3.076548 J-3.076555
G03 X98.868930 Y89.350890 Z0.000000 I-1.665011 J-4.019711
G03 X95.792379 Y88.076541 Z0.000000 I0.000001 J-4.350901
G03 X94.518030 Y84.999990 Z0.000000 I3.076552 J-3.076552
G03 X95.792379 Y81.923439 Z0.000000 I4.350901 J0.000001
G03 X98.868930 Y80.649090 Z0.000000 I3.076552 J3.076552
G01 X98.868930 Y80.649090 Z0.000000
M63 P0

(End cutting path id: path930)


(Start cutting path id: path926)
(Change tool to Default tool)

M63 P0
G00 X58.796748 Y169.940284

M62 P0(Penetrate)
G01 X40.181520 Y169.940284 Z0.000000 F400.000000
G01 X40.181520 Y0.059680 Z0.000000
G01 X58.796748 Y0.059680 Z0.000000
G01 X58.796748 Y169.940284 Z0.000000
M63 P0

(End cutting path id: path926)


(Start cutting path id: path924)
(Change tool to Default tool)

M63 P0
G00 X48.281663 Y25.324830

M62 P0(Penetrate)
G03 X49.841155 Y25.635032 Z0.000000 I0.000000 J4.075149 F400.000000
G03 X51.163229 Y26.518414 Z0.000000 I-1.559492 J3.764946
G03 X52.046610 Y27.840488 Z0.000000 I-2.881566 J2.881565
G03 X52.356812 Y29.399980 Z0.000000 I-3.764947 J1.559491
G03 X52.046610 Y30.959472 Z0.000000 I-4.075149 J0.000001
G03 X51.163229 Y32.281546 Z0.000000 I-3.764947 J-1.559491
G03 X49.841155 Y33.164928 Z0.000000 I-2.881566 J-2.881565
G03 X48.281663 Y33.475130 Z0.000000 I-1.559492 J-3.764946
G03 X45.400098 Y32.281546 Z0.000000 I0.000002 J-4.075149
G03 X44.206516 Y29.399980 Z0.000000 I2.881566 J-2.881564
G03 X45.400098 Y26.518414 Z0.000000 I4.075149 J-0.000001
G03 X48.281663 Y25.324830 Z0.000000 I2.881566 J2.881564
G01 X48.281663 Y25.324830 Z0.000000
M63 P0

(End cutting path id: path924)


(Start cutting path id: path922)
(Change tool to Default tool)

M63 P0
G00 X48.281663 Y136.524840

M62 P0(Penetrate)
G03 X49.841155 Y136.835042 Z0.000000 I0.000000 J4.075149 F400.000000
G03 X51.163229 Y137.718424 Z0.000000 I-1.559492 J3.764946
G03 X52.046610 Y139.040498 Z0.000000 I-2.881566 J2.881565
G03 X52.356812 Y140.599990 Z0.000000 I-3.764947 J1.559491
G03 X52.046610 Y142.159482 Z0.000000 I-4.075149 J0.000001
G03 X51.163229 Y143.481556 Z0.000000 I-3.764947 J-1.559491
G03 X49.841155 Y144.364938 Z0.000000 I-2.881566 J-2.881565
G03 X48.281663 Y144.675140 Z0.000000 I-1.559492 J-3.764946
G03 X45.400098 Y143.481556 Z0.000000 I0.000002 J-4.075149
G03 X44.206516 Y140.599990 Z0.000000 I2.881566 J-2.881564
G03 X45.400098 Y137.718424 Z0.000000 I4.075149 J-0.000001
G03 X48.281663 Y136.524840 Z0.000000 I2.881566 J2.881564
G01 X48.281663 Y136.524840 Z0.000000
M63 P0

(End cutting path id: path922)


(Start cutting path id: path918)
(Change tool to Default tool)

M63 P0
G00 X38.669628 Y169.940284

M62 P0(Penetrate)
G01 X20.054400 Y169.940284 Z0.000000 F400.000000
G01 X20.054400 Y0.059680 Z0.000000
G01 X38.669628 Y0.059680 Z0.000000
G01 X38.669628 Y169.940284 Z0.000000
M63 P0

(End cutting path id: path918)


(Start cutting path id: path916)
(Change tool to Default tool)

M63 P0
G00 X28.154543 Y25.324830

M62 P0(Penetrate)
G03 X29.714035 Y25.635032 Z0.000000 I0.000000 J4.075149 F400.000000
G03 X31.036109 Y26.518414 Z0.000000 I-1.559492 J3.764946
G03 X31.919490 Y27.840488 Z0.000000 I-2.881566 J2.881565
G03 X32.229692 Y29.399980 Z0.000000 I-3.764947 J1.559491
G03 X31.919490 Y30.959472 Z0.000000 I-4.075149 J0.000001
G03 X31.036109 Y32.281546 Z0.000000 I-3.764947 J-1.559491
G03 X29.714035 Y33.164928 Z0.000000 I-2.881566 J-2.881565
G03 X28.154543 Y33.475130 Z0.000000 I-1.559492 J-3.764946
G03 X25.272978 Y32.281546 Z0.000000 I0.000002 J-4.075149
G03 X24.079396 Y29.399980 Z0.000000 I2.881566 J-2.881564
G03 X25.272978 Y26.518414 Z0.000000 I4.075149 J-0.000001
G03 X28.154543 Y25.324830 Z0.000000 I2.881566 J2.881564
G01 X28.154543 Y25.324830 Z0.000000
M63 P0

(End cutting path id: path916)


(Start cutting path id: path914)
(Change tool to Default tool)

M63 P0
G00 X28.154543 Y136.524840

M62 P0(Penetrate)
G03 X29.714035 Y136.835042 Z0.000000 I0.000000 J4.075149 F400.000000
G03 X31.036109 Y137.718424 Z0.000000 I-1.559492 J3.764946
G03 X31.919490 Y139.040498 Z0.000000 I-2.881566 J2.881565
G03 X32.229692 Y140.599990 Z0.000000 I-3.764947 J1.559491
G03 X31.919490 Y142.159482 Z0.000000 I-4.075149 J0.000001
G03 X31.036109 Y143.481556 Z0.000000 I-3.764947 J-1.559491
G03 X29.714035 Y144.364938 Z0.000000 I-2.881566 J-2.881565
G03 X28.154543 Y144.675140 Z0.000000 I-1.559492 J-3.764946
G03 X25.272978 Y143.481556 Z0.000000 I0.000002 J-4.075149
G03 X24.079396 Y140.599990 Z0.000000 I2.881566 J-2.881564
G03 X25.272978 Y137.718424 Z0.000000 I4.075149 J-0.000001
G03 X28.154543 Y136.524840 Z0.000000 I2.881566 J2.881564
G01 X28.154543 Y136.524840 Z0.000000
M63 P0

(End cutting path id: path914)


(Start cutting path id: path865)
(Change tool to Default tool)

M63 P0
G00 X18.674923 Y169.940284

M62 P0(Penetrate)
G01 X0.059695 Y169.940284 Z0.000000 F400.000000
G01 X0.059695 Y0.059680 Z0.000000
G01 X18.674923 Y0.059680 Z0.000000
G01 X18.674923 Y169.940284 Z0.000000
M63 P0

(End cutting path id: path865)


(Start cutting path id: circle844)
(Change tool to Default tool)

M63 P0
G00 X8.159838 Y25.324830

M62 P0(Penetrate)
G03 X9.719331 Y25.635032 Z0.000000 I0.000000 J4.075149 F400.000000
G03 X11.041404 Y26.518414 Z0.000000 I-1.559492 J3.764946
G03 X11.924785 Y27.840488 Z0.000000 I-2.881566 J2.881565
G03 X12.234987 Y29.399980 Z0.000000 I-3.764947 J1.559491
G03 X11.924785 Y30.959472 Z0.000000 I-4.075149 J0.000001
G03 X11.041404 Y32.281546 Z0.000000 I-3.764947 J-1.559491
G03 X9.719331 Y33.164928 Z0.000000 I-2.881566 J-2.881565
G03 X8.159838 Y33.475130 Z0.000000 I-1.559492 J-3.764946
G03 X6.600346 Y33.164927 Z0.000000 I0.000001 J-4.075149
G03 X5.278273 Y32.281546 Z0.000000 I1.559493 J-3.764946
G03 X4.394892 Y30.959472 Z0.000000 I2.881566 J-2.881564
G03 X4.084691 Y29.399980 Z0.000000 I3.764947 J-1.559491
G03 X4.394892 Y27.840488 Z0.000000 I4.075149 J-0.000001
G03 X5.278273 Y26.518414 Z0.000000 I3.764947 J1.559491
G03 X6.600346 Y25.635033 Z0.000000 I2.881566 J2.881564
G03 X8.159838 Y25.324830 Z0.000000 I1.559493 J3.764946
G01 X8.159838 Y25.324830 Z0.000000
M63 P0

(End cutting path id: circle844)


(Start cutting path id: circle842)
(Change tool to Default tool)

M63 P0
G00 X8.159838 Y136.524840

M62 P0(Penetrate)
G03 X9.719331 Y136.835042 Z0.000000 I-0.000000 J4.075149 F400.000000
G03 X11.041404 Y137.718424 Z0.000000 I-1.559492 J3.764946
G03 X11.924785 Y139.040498 Z0.000000 I-2.881566 J2.881565
G03 X12.234987 Y140.599990 Z0.000000 I-3.764947 J1.559491
G03 X11.924785 Y142.159482 Z0.000000 I-4.075149 J0.000001
G03 X11.041404 Y143.481556 Z0.000000 I-3.764947 J-1.559491
G03 X9.719331 Y144.364938 Z0.000000 I-2.881566 J-2.881565
G03 X8.159838 Y144.675140 Z0.000000 I-1.559492 J-3.764946
G03 X6.600346 Y144.364937 Z0.000000 I0.000001 J-4.075149
G03 X5.278273 Y143.481556 Z0.000000 I1.559493 J-3.764946
G03 X4.394892 Y142.159482 Z0.000000 I2.881566 J-2.881564
G03 X4.084691 Y140.599990 Z0.000000 I3.764947 J-1.559491
G03 X4.394892 Y139.040498 Z0.000000 I4.075149 J-0.000001
G03 X5.278273 Y137.718424 Z0.000000 I3.764947 J1.559491
G03 X6.600346 Y136.835043 Z0.000000 I2.881566 J2.881564
G03 X8.159838 Y136.524840 Z0.000000 I1.559493 J3.764946
G01 X8.159838 Y136.524840 Z0.000000
M63 P0

(End cutting path id: circle842)


(Start cutting path id: path891)
(Change tool to Default tool)

M63 P0
G00 X109.167980 Y0.059680

M62 P0(Penetrate)
G01 X130.430310 Y0.059680 Z0.000000 F400.000000
G01 X130.430310 Y169.940288 Z0.000000
G01 X109.167980 Y169.940288 Z0.000000
G01 X109.167980 Y0.059680 Z0.000000
M63 P0

(End cutting path id: path891)


(Start cutting path id: path818)
(Change tool to Default tool)

M63 P0
G00 X123.104820 Y80.649090

M62 P0(Penetrate)
G03 X124.769840 Y80.980280 Z0.000000 I0.000009 J4.350901 F400.000000
G03 X126.181377 Y81.923436 Z0.000000 I-1.665011 J4.019711
G03 X127.124536 Y83.334971 Z0.000000 I-3.076548 J3.076555
G03 X127.455730 Y84.999990 Z0.000000 I-4.019707 J1.665021
G03 X127.124536 Y86.665009 Z0.000000 I-4.350901 J-0.000001
G03 X126.181377 Y88.076544 Z0.000000 I-4.019707 J-1.665021
G03 X124.769840 Y89.019700 Z0.000000 I-3.076548 J-3.076555
G03 X123.104820 Y89.350890 Z0.000000 I-1.665011 J-4.019711
G03 X120.028269 Y88.076541 Z0.000000 I0.000001 J-4.350901
G03 X118.753920 Y84.999990 Z0.000000 I3.076552 J-3.076552
G03 X120.028269 Y81.923439 Z0.000000 I4.350901 J0.000001
G03 X123.104820 Y80.649090 Z0.000000 I3.076552 J3.076552
G01 X123.104820 Y80.649090 Z0.000000
M63 P0

(End cutting path id: path818)


(Footer)
M5
G00 X0.0000 Y0.0000
M2
(Using default footer. To add your own footer create file "footer" in the output dir.)
(end)
%