%
(Header)
(Generated by gcodetools from Inkscape.)
(Using default header. To add your own header create file "header" in the output dir.)
M3 S1 F500
(Header end.)
G21 (All units in mm)

(Start cutting path id: circle850)
(Change tool to Default tool)

M63 P0
G00 X204.000000 Y80.924836

M62 P0(Penetrate)
G03 X205.559493 Y81.235038 Z0.000000 I0.000001 J4.075149 F400.000000
G03 X206.881567 Y82.118419 Z0.000000 I-1.559491 J3.764947
G03 X207.764948 Y83.440493 Z0.000000 I-2.881565 J2.881565
G03 X208.075150 Y84.999986 Z0.000000 I-3.764947 J1.559491
G03 X207.764948 Y86.559479 Z0.000000 I-4.075149 J0.000001
G03 X206.881567 Y87.881553 Z0.000000 I-3.764947 J-1.559491
G03 X205.559493 Y88.764934 Z0.000000 I-2.881565 J-2.881565
G03 X204.000000 Y89.075136 Z0.000000 I-1.559491 J-3.764947
G03 X202.440507 Y88.764934 Z0.000000 I-0.000001 J-4.075149
G03 X201.118433 Y87.881553 Z0.000000 I1.559491 J-3.764947
G03 X200.235052 Y86.559479 Z0.000000 I2.881565 J-2.881565
G03 X199.924850 Y84.999986 Z0.000000 I3.764947 J-1.559491
G03 X200.235052 Y83.440493 Z0.000000 I4.075149 J-0.000001
G03 X201.118433 Y82.118419 Z0.000000 I3.764947 J1.559491
G03 X202.440507 Y81.235038 Z0.000000 I2.881565 J2.881565
G03 X204.000000 Y80.924836 Z0.000000 I1.559491 J3.764947
G01 X204.000000 Y80.924836 Z0.000000
M63 P0

(End cutting path id: circle850)


(Start cutting path id: circle844)
(Change tool to Default tool)

M63 P0
G00 X7.917240 Y25.324826

M62 P0(Penetrate)
G03 X9.476732 Y25.635028 Z0.000000 I-0.000000 J4.075149 F400.000000
G03 X10.798805 Y26.518410 Z0.000000 I-1.559492 J3.764946
G03 X11.682186 Y27.840484 Z0.000000 I-2.881566 J2.881565
G03 X11.992388 Y29.399976 Z0.000000 I-3.764947 J1.559491
G03 X11.682186 Y30.959468 Z0.000000 I-4.075149 J0.000001
G03 X10.798805 Y32.281542 Z0.000000 I-3.764947 J-1.559491
G03 X9.476732 Y33.164924 Z0.000000 I-2.881566 J-2.881565
G03 X7.917240 Y33.475126 Z0.000000 I-1.559492 J-3.764946
G03 X6.357748 Y33.164923 Z0.000000 I0.000001 J-4.075149
G03 X5.035674 Y32.281542 Z0.000000 I1.559493 J-3.764946
G03 X4.152294 Y30.959468 Z0.000000 I2.881566 J-2.881564
G03 X3.842092 Y29.399976 Z0.000000 I3.764947 J-1.559491
G03 X4.152294 Y27.840484 Z0.000000 I4.075149 J-0.000001
G03 X5.035674 Y26.518410 Z0.000000 I3.764947 J1.559491
G03 X6.357748 Y25.635029 Z0.000000 I2.881566 J2.881564
G03 X7.917239 Y25.324826 Z0.000000 I1.559493 J3.764946
G01 X7.917239 Y25.324826 Z0.000000
M63 P0

(End cutting path id: circle844)


(Start cutting path id: circle842)
(Change tool to Default tool)

M63 P0
G00 X7.917240 Y136.524836

M62 P0(Penetrate)
G03 X9.476732 Y136.835038 Z0.000000 I-0.000000 J4.075149 F400.000000
G03 X10.798805 Y137.718420 Z0.000000 I-1.559492 J3.764946
G03 X11.682186 Y139.040494 Z0.000000 I-2.881566 J2.881565
G03 X11.992388 Y140.599986 Z0.000000 I-3.764947 J1.559491
G03 X11.682186 Y142.159478 Z0.000000 I-4.075149 J0.000001
G03 X10.798805 Y143.481552 Z0.000000 I-3.764947 J-1.559491
G03 X9.476732 Y144.364934 Z0.000000 I-2.881566 J-2.881565
G03 X7.917240 Y144.675136 Z0.000000 I-1.559492 J-3.764946
G03 X6.357748 Y144.364933 Z0.000000 I0.000001 J-4.075149
G03 X5.035674 Y143.481552 Z0.000000 I1.559493 J-3.764946
G03 X4.152294 Y142.159478 Z0.000000 I2.881566 J-2.881564
G03 X3.842092 Y140.599986 Z0.000000 I3.764947 J-1.559491
G03 X4.152294 Y139.040494 Z0.000000 I4.075149 J-0.000001
G03 X5.035674 Y137.718420 Z0.000000 I3.764947 J1.559491
G03 X6.357748 Y136.835039 Z0.000000 I2.881566 J2.881564
G03 X7.917240 Y136.524836 Z0.000000 I1.559493 J3.764946
G01 X7.917239 Y136.524836 Z0.000000
M63 P0

(End cutting path id: circle842)


(Start cutting path id: rect824)
(Change tool to Default tool)

M63 P0
G00 X0.059695 Y169.940288

M62 P0(Penetrate)
G01 X0.059695 Y0.059676 Z0.000000 F400.000000
G01 X211.940310 Y0.059676 Z0.000000
G01 X211.940310 Y169.940288 Z0.000000
G01 X0.059695 Y169.940288 Z0.000000
M63 P0

(End cutting path id: rect824)


(Footer)
M5
G00 X0.0000 Y0.0000
M2
(Using default footer. To add your own footer create file "footer" in the output dir.)
(end)
%