%
(Header)
(Generated by gcodetools from Inkscape.)
(Using default header. To add your own header create file "header" in the output dir.)
M3 S1 F500
(Header end.)
G21 (All units in mm)

(Start cutting path id: circle850)
(Change tool to Default tool)

M63 P0
G00 X204.000000 Y80.924840

M62 P0(Penetrate)
G03 X205.559493 Y81.235042 Z0.000000 I0.000001 J4.075149 F400.000000
G03 X206.881567 Y82.118423 Z0.000000 I-1.559491 J3.764947
G03 X207.764948 Y83.440497 Z0.000000 I-2.881565 J2.881565
G03 X208.075150 Y84.999990 Z0.000000 I-3.764947 J1.559491
G03 X207.764948 Y86.559483 Z0.000000 I-4.075149 J0.000001
G03 X206.881567 Y87.881557 Z0.000000 I-3.764947 J-1.559491
G03 X205.559493 Y88.764938 Z0.000000 I-2.881565 J-2.881565
G03 X204.000000 Y89.075140 Z0.000000 I-1.559491 J-3.764947
G03 X202.440507 Y88.764938 Z0.000000 I-0.000001 J-4.075149
G03 X201.118433 Y87.881557 Z0.000000 I1.559491 J-3.764947
G03 X200.235052 Y86.559483 Z0.000000 I2.881565 J-2.881565
G03 X199.924850 Y84.999990 Z0.000000 I3.764947 J-1.559491
G03 X200.235052 Y83.440497 Z0.000000 I4.075149 J-0.000001
G03 X201.118433 Y82.118423 Z0.000000 I3.764947 J1.559491
G03 X202.440507 Y81.235042 Z0.000000 I2.881565 J2.881565
G03 X204.000000 Y80.924840 Z0.000000 I1.559491 J3.764947
G01 X204.000000 Y80.924840 Z0.000000
M63 P0

(End cutting path id: circle850)


(Start cutting path id: circle844)
(Change tool to Default tool)

M63 P0
G00 X8.623292 Y25.324830

M62 P0(Penetrate)
G03 X10.182784 Y25.635032 Z0.000000 I0.000001 J4.075149 F400.000000
G03 X11.504858 Y26.518414 Z0.000000 I-1.559492 J3.764946
G03 X12.388239 Y27.840488 Z0.000000 I-2.881565 J2.881565
G03 X12.698441 Y29.399980 Z0.000000 I-3.764947 J1.559491
G03 X12.388239 Y30.959472 Z0.000000 I-4.075149 J0.000001
G03 X11.504858 Y32.281546 Z0.000000 I-3.764947 J-1.559491
G03 X10.182784 Y33.164928 Z0.000000 I-2.881565 J-2.881565
G03 X8.623292 Y33.475130 Z0.000000 I-1.559492 J-3.764946
G03 X7.063800 Y33.164927 Z0.000000 I0.000001 J-4.075149
G03 X5.741727 Y32.281546 Z0.000000 I1.559493 J-3.764946
G03 X4.858346 Y30.959472 Z0.000000 I2.881566 J-2.881564
G03 X4.548144 Y29.399980 Z0.000000 I3.764947 J-1.559491
G03 X4.858346 Y27.840488 Z0.000000 I4.075149 J-0.000001
G03 X5.741727 Y26.518414 Z0.000000 I3.764947 J1.559491
G03 X7.063800 Y25.635033 Z0.000000 I2.881566 J2.881564
G03 X8.623292 Y25.324830 Z0.000000 I1.559493 J3.764946
G01 X8.623292 Y25.324830 Z0.000000
M63 P0

(End cutting path id: circle844)


(Start cutting path id: circle842)
(Change tool to Default tool)

M63 P0
G00 X8.623292 Y136.524840

M62 P0(Penetrate)
G03 X10.182784 Y136.835042 Z0.000000 I0.000001 J4.075149 F400.000000
G03 X11.504858 Y137.718424 Z0.000000 I-1.559492 J3.764946
G03 X12.388239 Y139.040498 Z0.000000 I-2.881565 J2.881565
G03 X12.698441 Y140.599990 Z0.000000 I-3.764947 J1.559491
G03 X12.388239 Y142.159482 Z0.000000 I-4.075149 J0.000001
G03 X11.504858 Y143.481556 Z0.000000 I-3.764947 J-1.559491
G03 X10.182784 Y144.364938 Z0.000000 I-2.881565 J-2.881565
G03 X8.623292 Y144.675140 Z0.000000 I-1.559492 J-3.764946
G03 X7.063800 Y144.364937 Z0.000000 I0.000001 J-4.075149
G03 X5.741727 Y143.481556 Z0.000000 I1.559493 J-3.764946
G03 X4.858346 Y142.159482 Z0.000000 I2.881566 J-2.881564
G03 X4.548144 Y140.599990 Z0.000000 I3.764947 J-1.559491
G03 X4.858346 Y139.040498 Z0.000000 I4.075149 J-0.000001
G03 X5.741727 Y137.718424 Z0.000000 I3.764947 J1.559491
G03 X7.063800 Y136.835043 Z0.000000 I2.881566 J2.881564
G03 X8.623292 Y136.524840 Z0.000000 I1.559493 J3.764946
G01 X8.623292 Y136.524840 Z0.000000
M63 P0

(End cutting path id: circle842)


(Start cutting path id: rect824)
(Change tool to Default tool)

M63 P0
G00 X0.059695 Y169.940288

M62 P0(Penetrate)
G01 X0.059695 Y0.059680 Z0.000000 F400.000000
G01 X211.940310 Y0.059680 Z0.000000
G01 X211.940310 Y169.940288 Z0.000000
G01 X0.059695 Y169.940288 Z0.000000
M63 P0

(End cutting path id: rect824)


(Start cutting path id: rect822)
(Change tool to Default tool)

M63 P0
G00 X148.342610 Y148.107000

M62 P0(Penetrate)
G01 X148.342610 Y22.094000 Z0.000000 F400.000000
G01 X64.151423 Y22.094000 Z0.000000
G01 X64.151423 Y148.107000 Z0.000000
G01 X95.209896 Y148.109000 Z0.000000
G02 X98.540229 Y155.701024 Z0.000000 I11.059956 J-0.325125
G02 X106.247010 Y158.839307 Z0.000000 I7.706781 J-7.893753
G02 X113.954506 Y155.700438 Z0.000000 I0.000000 J-11.032316
G02 X117.280980 Y148.109990 Z0.000000 I-7.721922 J-7.908221
G01 X148.342610 Y148.107000 Z0.000000
M63 P0

(End cutting path id: rect822)


(Footer)
M5
G00 X0.0000 Y0.0000
M2
(Using default footer. To add your own footer create file "footer" in the output dir.)
(end)
%