%
(Header)
(Generated by gcodetools from Inkscape.)
(Using default header. To add your own header create file "header" in the output dir.)
M3 S1 F500
(Header end.)
G21 (All units in mm)

(Start cutting path id: circle850)
(Change tool to Default tool)

M63 P0
G00 X204.000000 Y80.924840

M62 P0(Penetrate)
G03 X205.559493 Y81.235042 Z0.000000 I0.000001 J4.075149 F400.000000
G03 X206.881567 Y82.118423 Z0.000000 I-1.559491 J3.764947
G03 X207.764948 Y83.440497 Z0.000000 I-2.881565 J2.881565
G03 X208.075150 Y84.999990 Z0.000000 I-3.764947 J1.559491
G03 X207.764948 Y86.559483 Z0.000000 I-4.075149 J0.000001
G03 X206.881567 Y87.881557 Z0.000000 I-3.764947 J-1.559491
G03 X205.559493 Y88.764938 Z0.000000 I-2.881565 J-2.881565
G03 X204.000000 Y89.075140 Z0.000000 I-1.559491 J-3.764947
G03 X202.440507 Y88.764938 Z0.000000 I-0.000001 J-4.075149
G03 X201.118433 Y87.881557 Z0.000000 I1.559491 J-3.764947
G03 X200.235052 Y86.559483 Z0.000000 I2.881565 J-2.881565
G03 X199.924850 Y84.999990 Z0.000000 I3.764947 J-1.559491
G03 X200.235052 Y83.440497 Z0.000000 I4.075149 J-0.000001
G03 X201.118433 Y82.118423 Z0.000000 I3.764947 J1.559491
G03 X202.440507 Y81.235042 Z0.000000 I2.881565 J2.881565
G03 X204.000000 Y80.924840 Z0.000000 I1.559491 J3.764947
G01 X204.000000 Y80.924840 Z0.000000
M63 P0

(End cutting path id: circle850)


(Start cutting path id: circle844)
(Change tool to Default tool)

M63 P0
G00 X8.159838 Y25.324830

M62 P0(Penetrate)
G03 X9.719331 Y25.635032 Z0.000000 I0.000000 J4.075149 F400.000000
G03 X11.041404 Y26.518414 Z0.000000 I-1.559492 J3.764946
G03 X11.924785 Y27.840488 Z0.000000 I-2.881566 J2.881565
G03 X12.234987 Y29.399980 Z0.000000 I-3.764947 J1.559491
G03 X11.924785 Y30.959472 Z0.000000 I-4.075149 J0.000001
G03 X11.041404 Y32.281546 Z0.000000 I-3.764947 J-1.559491
G03 X9.719331 Y33.164928 Z0.000000 I-2.881566 J-2.881565
G03 X8.159838 Y33.475130 Z0.000000 I-1.559492 J-3.764946
G03 X6.600346 Y33.164927 Z0.000000 I0.000001 J-4.075149
G03 X5.278273 Y32.281546 Z0.000000 I1.559493 J-3.764946
G03 X4.394892 Y30.959472 Z0.000000 I2.881566 J-2.881564
G03 X4.084691 Y29.399980 Z0.000000 I3.764947 J-1.559491
G03 X4.394892 Y27.840488 Z0.000000 I4.075149 J-0.000001
G03 X5.278273 Y26.518414 Z0.000000 I3.764947 J1.559491
G03 X6.600346 Y25.635033 Z0.000000 I2.881566 J2.881564
G03 X8.159838 Y25.324830 Z0.000000 I1.559493 J3.764946
G01 X8.159838 Y25.324830 Z0.000000
M63 P0

(End cutting path id: circle844)


(Start cutting path id: circle842)
(Change tool to Default tool)

M63 P0
G00 X8.159838 Y136.524840

M62 P0(Penetrate)
G03 X9.719331 Y136.835042 Z0.000000 I-0.000000 J4.075149 F400.000000
G03 X11.041404 Y137.718424 Z0.000000 I-1.559492 J3.764946
G03 X11.924785 Y139.040498 Z0.000000 I-2.881566 J2.881565
G03 X12.234987 Y140.599990 Z0.000000 I-3.764947 J1.559491
G03 X11.924785 Y142.159482 Z0.000000 I-4.075149 J0.000001
G03 X11.041404 Y143.481556 Z0.000000 I-3.764947 J-1.559491
G03 X9.719331 Y144.364938 Z0.000000 I-2.881566 J-2.881565
G03 X8.159838 Y144.675140 Z0.000000 I-1.559492 J-3.764946
G03 X6.600346 Y144.364937 Z0.000000 I0.000001 J-4.075149
G03 X5.278273 Y143.481556 Z0.000000 I1.559493 J-3.764946
G03 X4.394892 Y142.159482 Z0.000000 I2.881566 J-2.881564
G03 X4.084691 Y140.599990 Z0.000000 I3.764947 J-1.559491
G03 X4.394892 Y139.040498 Z0.000000 I4.075149 J-0.000001
G03 X5.278273 Y137.718424 Z0.000000 I3.764947 J1.559491
G03 X6.600346 Y136.835043 Z0.000000 I2.881566 J2.881564
G03 X8.159838 Y136.524840 Z0.000000 I1.559493 J3.764946
G01 X8.159838 Y136.524840 Z0.000000
M63 P0

(End cutting path id: circle842)


(Start cutting path id: rect824)
(Change tool to Default tool)

M63 P0
G00 X0.059695 Y169.940288

M62 P0(Penetrate)
G01 X0.059695 Y0.059680 Z0.000000 F400.000000
G01 X211.940310 Y0.059680 Z0.000000
G01 X211.940310 Y169.940288 Z0.000000
G01 X0.059695 Y169.940288 Z0.000000
M63 P0

(End cutting path id: rect824)


(Start cutting path id: rect822)
(Change tool to Default tool)

M63 P0
G00 X148.342420 Y148.106840

M62 P0(Penetrate)
G01 X148.342420 Y22.094190 Z0.000000 F400.000000
G01 X63.489540 Y22.094190 Z0.000000
G01 X63.489540 Y148.106840 Z0.000000
G01 X94.792113 Y148.108840 Z0.000000
G02 X98.135863 Y155.688709 Z0.000000 I11.002118 J-0.325968
G02 X105.915970 Y158.839114 Z0.000000 I7.780107 J-8.031509
G02 X113.696803 Y155.688117 Z0.000000 I0.000000 J-11.182198
G02 X117.036660 Y148.109830 Z0.000000 I-7.650691 J-7.896870
G01 X148.342420 Y148.106840 Z0.000000
M63 P0

(End cutting path id: rect822)


(Footer)
M5
G00 X0.0000 Y0.0000
M2
(Using default footer. To add your own footer create file "footer" in the output dir.)
(end)
%