%
(Header)
(Generated by gcodetools from Inkscape.)
(Using default header. To add your own header create file "header" in the output dir.)
M3 S1 F500
(Header end.)
G21 (All units in mm)

(Start cutting path id: path818)
(Change tool to Default tool)

M63 P0
G00 X204.614820 Y80.649090

M62 P0(Penetrate)
G03 X206.279840 Y80.980280 Z0.000000 I0.000009 J4.350901 F400.000000
G03 X207.691377 Y81.923436 Z0.000000 I-1.665011 J4.019711
G03 X208.634536 Y83.334971 Z0.000000 I-3.076548 J3.076555
G03 X208.965730 Y84.999990 Z0.000000 I-4.019707 J1.665021
G03 X208.634536 Y86.665009 Z0.000000 I-4.350901 J-0.000001
G03 X207.691377 Y88.076544 Z0.000000 I-4.019707 J-1.665021
G03 X206.279840 Y89.019700 Z0.000000 I-3.076548 J-3.076555
G03 X204.614820 Y89.350890 Z0.000000 I-1.665011 J-4.019711
G03 X201.538269 Y88.076541 Z0.000000 I0.000001 J-4.350901
G03 X200.263920 Y84.999990 Z0.000000 I3.076552 J-3.076552
G03 X201.538269 Y81.923439 Z0.000000 I4.350901 J0.000001
G03 X204.614820 Y80.649090 Z0.000000 I3.076552 J3.076552
G01 X204.614820 Y80.649090 Z0.000000
M63 P0

(End cutting path id: path818)


(Start cutting path id: circle844)
(Change tool to Default tool)

M63 P0
G00 X8.159838 Y25.324830

M62 P0(Penetrate)
G03 X9.719331 Y25.635032 Z0.000000 I0.000000 J4.075149 F400.000000
G03 X11.041404 Y26.518414 Z0.000000 I-1.559492 J3.764946
G03 X11.924785 Y27.840488 Z0.000000 I-2.881566 J2.881565
G03 X12.234987 Y29.399980 Z0.000000 I-3.764947 J1.559491
G03 X11.924785 Y30.959472 Z0.000000 I-4.075149 J0.000001
G03 X11.041404 Y32.281546 Z0.000000 I-3.764947 J-1.559491
G03 X9.719331 Y33.164928 Z0.000000 I-2.881566 J-2.881565
G03 X8.159838 Y33.475130 Z0.000000 I-1.559492 J-3.764946
G03 X6.600346 Y33.164927 Z0.000000 I0.000001 J-4.075149
G03 X5.278273 Y32.281546 Z0.000000 I1.559493 J-3.764946
G03 X4.394892 Y30.959472 Z0.000000 I2.881566 J-2.881564
G03 X4.084691 Y29.399980 Z0.000000 I3.764947 J-1.559491
G03 X4.394892 Y27.840488 Z0.000000 I4.075149 J-0.000001
G03 X5.278273 Y26.518414 Z0.000000 I3.764947 J1.559491
G03 X6.600346 Y25.635033 Z0.000000 I2.881566 J2.881564
G03 X8.159838 Y25.324830 Z0.000000 I1.559493 J3.764946
G01 X8.159838 Y25.324830 Z0.000000
M63 P0

(End cutting path id: circle844)


(Start cutting path id: circle842)
(Change tool to Default tool)

M63 P0
G00 X8.159838 Y136.524840

M62 P0(Penetrate)
G03 X9.719331 Y136.835042 Z0.000000 I-0.000000 J4.075149 F400.000000
G03 X11.041404 Y137.718424 Z0.000000 I-1.559492 J3.764946
G03 X11.924785 Y139.040498 Z0.000000 I-2.881566 J2.881565
G03 X12.234987 Y140.599990 Z0.000000 I-3.764947 J1.559491
G03 X11.924785 Y142.159482 Z0.000000 I-4.075149 J0.000001
G03 X11.041404 Y143.481556 Z0.000000 I-3.764947 J-1.559491
G03 X9.719331 Y144.364938 Z0.000000 I-2.881566 J-2.881565
G03 X8.159838 Y144.675140 Z0.000000 I-1.559492 J-3.764946
G03 X6.600346 Y144.364937 Z0.000000 I0.000001 J-4.075149
G03 X5.278273 Y143.481556 Z0.000000 I1.559493 J-3.764946
G03 X4.394892 Y142.159482 Z0.000000 I2.881566 J-2.881564
G03 X4.084691 Y140.599990 Z0.000000 I3.764947 J-1.559491
G03 X4.394892 Y139.040498 Z0.000000 I4.075149 J-0.000001
G03 X5.278273 Y137.718424 Z0.000000 I3.764947 J1.559491
G03 X6.600346 Y136.835043 Z0.000000 I2.881566 J2.881564
G03 X8.159838 Y136.524840 Z0.000000 I1.559493 J3.764946
G01 X8.159838 Y136.524840 Z0.000000
M63 P0

(End cutting path id: circle842)


(Start cutting path id: rect824)
(Change tool to Default tool)

M63 P0
G00 X0.059695 Y169.940288

M62 P0(Penetrate)
G01 X0.059695 Y0.059680 Z0.000000 F400.000000
G01 X211.940310 Y0.059680 Z0.000000
G01 X211.940310 Y169.940288 Z0.000000
G01 X0.059695 Y169.940288 Z0.000000
M63 P0

(End cutting path id: rect824)


(Footer)
M5
G00 X0.0000 Y0.0000
M2
(Using default footer. To add your own footer create file "footer" in the output dir.)
(end)
%